<?xml version="1.0" encoding="UTF-8"?>
<map version="1.10" tiledversion="1.12.2" orientation="orthogonal" renderorder="right-down" width="13" height="12" tilewidth="16" tileheight="16" infinite="0" nextlayerid="5" nextobjectid="1">
 <tileset firstgid="1" source="soil_island.tsj"/>
 <tileset firstgid="46" source="girl_idle_f.tsj"/>
 <tileset firstgid="47" source="grass_01.tsj"/>
 <tileset firstgid="122" source="girl_idle_l.tsj"/>
 <tileset firstgid="123" source="girl_idle_r.tsj"/>
 <tileset firstgid="124" source="girl_idle_b.tsj"/>
 <tileset firstgid="125" source="girl_walk_f.tsj"/>
 <tileset firstgid="126" source="girl_walk_b.tsj"/>
 <tileset firstgid="127" source="girl_walk_l.tsj"/>
 <tileset firstgid="128" source="girl_walk_r.tsj"/>
 <tileset firstgid="129" source="girl_idle.tsj"/>
 <tileset firstgid="161" source="girl_walk.tsj"/>
 <layer id="1" name="土" width="13" height="12">
  <data encoding="csv">
0,0,0,0,0,0,0,0,0,0,0,0,0,
0,11,11,11,11,11,11,11,11,11,11,11,0,
0,11,11,11,11,11,11,11,11,11,11,11,0,
0,11,11,11,11,11,11,11,11,11,11,11,0,
0,11,11,11,11,11,11,11,11,11,11,11,0,
0,11,11,11,11,11,11,11,11,11,11,11,0,
0,11,11,11,11,11,11,11,11,11,11,11,0,
0,11,11,11,11,11,11,11,11,11,11,11,0,
0,11,11,11,11,11,11,11,11,11,11,11,0,
0,11,11,11,11,11,11,11,11,11,11,11,0,
0,11,11,11,11,11,11,11,11,11,11,11,0,
0,0,0,0,0,0,0,0,0,0,0,0,0
</data>
 </layer>
 <layer id="2" name="草" width="13" height="12">
  <data encoding="csv">
0,0,0,0,0,0,0,0,0,0,0,0,0,
0,63,63,63,64,0,0,0,62,63,63,63,0,
0,63,63,63,64,0,0,0,62,63,63,63,0,
0,63,63,63,64,0,0,0,62,63,63,63,0,
0,78,78,78,79,0,0,0,77,78,78,78,0,
0,0,0,0,0,0,0,0,0,0,0,0,0,
0,0,0,0,0,0,0,0,0,0,0,0,0,
0,0,0,0,0,0,0,0,0,0,0,0,0,
0,48,48,48,49,0,0,0,47,48,48,48,0,
0,63,63,63,64,0,0,0,62,63,63,63,0,
0,63,63,63,64,0,0,0,62,63,63,63,0,
0,0,0,0,0,0,0,0,0,0,0,0,0
</data>
 </layer>
 <layer id="3" name="角色" width="13" height="12" visible="0">
  <data encoding="csv">
0,0,0,0,0,0,0,0,0,0,0,0,0,
0,0,0,0,0,0,0,0,0,0,0,0,0,
0,0,0,0,0,0,0,0,0,0,0,0,0,
0,0,0,0,0,0,0,0,0,0,0,0,0,
0,0,0,0,0,126,0,0,0,0,0,0,0,
0,0,0,0,0,0,0,0,0,0,0,0,0,
0,0,0,0,0,124,0,0,0,0,0,0,0,
0,0,127,0,122,0,123,0,128,0,0,0,0,
0,0,0,0,0,46,0,0,0,0,0,0,0,
0,0,0,0,0,0,0,0,0,0,0,0,0,
0,0,0,0,0,125,0,0,0,0,0,0,0,
0,0,0,0,0,0,0,0,0,0,0,0,0
</data>
 </layer>
 <layer id="4" name="角色" width="13" height="12">
  <data encoding="csv">
0,0,0,0,0,0,0,0,0,0,0,0,0,
0,0,0,0,0,0,0,0,0,0,0,0,0,
0,0,0,0,0,0,0,0,0,0,0,0,0,
0,0,0,0,0,0,0,0,0,0,0,0,0,
0,0,0,0,0,161,0,0,0,0,0,0,0,
0,0,0,0,0,0,0,0,0,0,0,0,0,
0,0,0,0,0,129,0,0,0,0,0,0,0,
0,0,177,0,145,0,153,0,185,0,0,0,0,
0,0,0,0,0,137,0,0,0,0,0,0,0,
0,0,0,0,0,0,0,0,0,0,0,0,0,
0,0,0,0,0,169,0,0,0,0,0,0,0,
0,0,0,0,0,0,0,0,0,0,0,0,0
</data>
 </layer>
</map>
