<?xml version="1.0" encoding="UTF-8"?>
<map version="1.10" tiledversion="1.12.2" orientation="orthogonal" renderorder="right-down" width="18" height="10" tilewidth="16" tileheight="16" infinite="0" nextlayerid="14" nextobjectid="59">
 <tileset firstgid="1" source="soil_island.tsj"/>
 <tileset firstgid="46" source="water.tsj"/>
 <tileset firstgid="66" source="grass_01_island.tsj"/>
 <tileset firstgid="91" source="grass_03_island.tsj"/>
 <tileset firstgid="116" source="chick_eat.tsj"/>
 <tileset firstgid="146" source="fence.tsj"/>
 <tileset firstgid="166" source="object.tsj"/>
 <tileset firstgid="174" source="chicken_squat_idle.tsj"/>
 <tileset firstgid="198" source="grass_01.tsj"/>
 <tileset firstgid="273" source="soil.tsj"/>
 <tileset firstgid="338" source="grass_02_island.tsj"/>
 <tileset firstgid="363" source="stone_01.tsj"/>
 <tileset firstgid="407" source="egg_born.tsj"/>
 <tileset firstgid="421" source="grass_01_shadow.tsj"/>
 <tileset firstgid="471" source="grass_02.tsj"/>
 <layer id="2" name="shui" width="18" height="10">
  <data encoding="csv">
0,0,0,62,65,60,60,59,60,60,60,60,60,60,60,0,0,0,
0,0,0,60,59,60,60,61,60,63,60,63,60,60,60,0,0,0,
0,0,0,60,63,60,62,60,65,60,60,60,62,60,60,0,0,0,
0,0,0,60,62,60,60,60,60,60,60,60,60,60,60,0,0,0,
0,0,0,60,60,61,60,60,60,60,62,60,60,60,60,0,0,0,
0,0,0,60,60,60,62,61,60,63,60,60,59,60,60,0,0,0,
0,0,0,63,60,65,60,60,60,62,60,60,60,60,61,0,0,0,
0,0,0,60,60,62,60,60,60,60,60,60,60,60,60,0,0,0,
0,0,0,60,60,60,60,59,63,60,60,60,63,64,60,0,0,0,
0,0,0,60,61,60,64,60,60,60,60,60,60,60,60,0,0,0
</data>
 </layer>
 <layer id="10" name="图块层 5" width="18" height="10">
  <data encoding="csv">
0,0,0,344,344,344,344,344,344,344,344,344,344,344,344,344,344,487,
0,0,0,344,344,344,344,344,344,344,344,344,344,344,344,344,344,487,
0,0,0,344,344,344,344,344,344,344,344,344,344,344,344,344,344,487,
0,0,0,344,344,344,344,344,344,344,344,344,344,344,344,487,487,487,
0,0,0,344,344,344,344,344,344,344,344,344,344,344,344,487,487,487,
0,0,0,344,344,344,344,344,344,344,344,344,344,344,344,487,487,487,
0,0,0,344,344,344,344,344,344,344,344,344,344,344,344,487,487,487,
0,0,0,344,344,344,344,344,344,344,344,344,344,344,344,487,487,487,
0,487,487,344,344,344,344,344,344,344,344,344,344,344,344,487,487,487,
487,487,0,344,344,344,344,344,344,344,344,344,344,344,344,487,487,487
</data>
 </layer>
 <layer id="9" name="cao" width="18" height="10">
  <data encoding="csv">
432,432,432,432,432,433,210,214,214,214,238,73,0,0,0,0,0,0,
432,432,432,432,436,443,214,208,214,214,214,74,67,68,0,0,66,67,
432,436,442,442,443,72,214,214,214,214,214,214,74,74,67,67,75,214,
432,433,214,214,241,223,214,214,214,214,257,241,214,214,240,214,421,422,
432,433,214,214,214,214,214,214,214,214,214,214,211,214,223,214,431,432,
442,443,214,214,214,214,214,257,214,214,214,214,257,214,214,214,431,432,
214,214,214,214,255,214,214,214,214,210,214,214,214,241,242,214,431,432,
214,214,214,214,214,253,214,214,214,214,256,214,254,214,272,214,441,442,
72,69,77,77,77,70,72,208,214,241,214,214,226,214,214,214,214,214,
72,73,344,344,344,76,70,214,214,214,214,214,271,69,77,77,77,70
</data>
 </layer>
 <layer id="11" name="图块层 6" width="18" height="10" visible="0">
  <data encoding="csv">
0,0,0,0,0,0,0,0,0,0,0,0,0,0,0,0,0,0,
0,0,0,0,0,0,0,0,0,0,0,0,0,0,0,0,0,0,
0,0,0,0,0,0,0,0,0,0,0,0,0,0,0,0,0,0,
0,0,0,0,0,0,0,0,0,0,0,0,0,0,0,0,0,0,
0,0,0,0,0,0,0,0,0,0,0,0,0,0,0,0,0,0,
0,0,0,0,0,0,0,0,0,0,0,0,0,0,0,0,0,0,
0,0,0,0,0,0,0,0,0,0,0,0,0,0,0,0,0,0,
0,0,0,0,0,0,0,0,0,0,0,0,0,0,0,0,0,0,
0,0,0,0,0,0,0,0,0,0,0,0,0,0,0,0,0,0,
0,0,0,0,0,0,0,0,0,0,0,0,0,0,0,0,0,0
</data>
 </layer>
 <layer id="12" name="zhalan" width="18" height="10" offsetx="-10.5" offsety="0">
  <data encoding="csv">
0,0,0,0,0,0,0,0,0,0,0,0,0,0,0,0,0,0,
0,0,0,0,0,0,0,0,0,0,0,0,0,0,0,0,0,0,
0,0,0,0,0,0,0,0,0,0,0,0,0,0,0,0,0,0,
0,0,0,0,0,0,0,0,0,0,0,0,0,0,149,0,0,0,
0,0,0,0,0,0,0,0,0,0,0,0,0,0,154,0,0,0,
0,0,0,0,0,0,0,0,0,0,0,0,0,0,159,0,0,0,
0,0,0,0,0,0,0,0,0,0,0,0,0,0,149,0,0,0,
0,0,0,0,0,0,0,0,0,0,0,0,0,0,154,0,0,0,
0,0,0,0,0,0,0,0,146,147,148,0,146,147,162,0,0,0,
0,0,0,0,0,0,0,0,0,0,0,0,0,0,0,0,0,0
</data>
 </layer>
 <layer id="6" name="zhuangshi" width="18" height="10">
  <data encoding="csv">
0,0,0,0,0,0,0,0,0,0,0,0,0,0,0,0,0,0,
0,0,0,0,0,0,0,0,0,0,0,0,0,0,0,0,0,0,
0,0,0,0,0,0,0,0,0,0,0,0,0,0,0,0,0,0,
0,0,0,0,0,0,0,0,0,0,0,0,0,0,0,0,0,0,
0,0,0,0,0,0,0,0,0,0,0,0,0,0,0,0,0,0,
0,0,0,0,0,0,0,0,0,0,0,0,0,0,0,0,0,0,
0,0,0,0,0,0,0,0,0,0,0,0,0,0,0,0,0,0,
0,0,0,0,0,0,0,0,0,0,0,0,0,0,0,0,0,0,
0,0,0,0,0,0,0,0,0,0,0,0,0,0,0,0,0,0,
0,0,0,0,0,0,0,0,0,0,0,0,0,0,0,0,0,0
</data>
 </layer>
 <objectgroup id="7" name="zhiwu">
  <object id="7" gid="366" x="47" y="81.5" width="32" height="32"/>
  <object id="9" gid="377" x="106.5" y="125.5" width="16" height="16"/>
  <object id="10" gid="378" x="117.625" y="120.5" width="16" height="16"/>
  <object id="11" gid="377" x="123" y="129.125" width="16" height="16"/>
  <object id="12" gid="379" x="192.5" y="58" width="16" height="16"/>
  <object id="13" gid="380" x="179" y="49" width="16" height="16"/>
  <object id="14" gid="379" x="166.5" y="54" width="16" height="16"/>
  <object id="15" gid="382" x="154" y="38" width="16" height="16"/>
  <object id="20" gid="396" x="186" y="63.5" width="16" height="16"/>
  <object id="21" gid="373" x="224" y="29.5" width="16" height="16"/>
  <object id="23" gid="370" x="207" y="158.5" width="16" height="16"/>
  <object id="24" gid="379" x="49" y="149" width="16" height="16"/>
  <object id="25" gid="381" x="55" y="160.5" width="16" height="16"/>
  <object id="26" gid="380" x="69.5" y="156.5" width="16" height="16"/>
  <object id="32" gid="402" x="45.5" y="16.5" width="32" height="32"/>
  <object id="33" gid="402" x="64" y="40.6667" width="32" height="32"/>
  <object id="41" gid="400" x="64" y="20.6667" width="48" height="64"/>
  <object id="44" gid="399" x="195.333" y="13.3333" width="32" height="32"/>
  <object id="48" gid="400" x="5" y="41" width="48" height="64"/>
  <object id="49" gid="400" x="-15.5" y="63" width="48" height="64"/>
  <object id="50" gid="366" x="253.5" y="70.5" width="32" height="32"/>
  <object id="51" gid="379" x="250" y="114.5" width="16" height="16"/>
  <object id="52" gid="381" x="264" y="103.5" width="16" height="16"/>
  <object id="54" gid="363" x="270" y="99" width="16" height="16"/>
  <object id="55" gid="380" x="273.5" y="113.5" width="16" height="16"/>
  <object id="56" gid="396" x="237.5" y="145.5" width="16" height="16"/>
  <object id="57" gid="402" x="6" y="162" width="32" height="32"/>
  <object id="58" gid="400" x="-16.5" y="148.5" width="48" height="64"/>
 </objectgroup>
 <layer id="8" name="道具" width="18" height="10">
  <data encoding="csv">
0,0,0,0,0,0,0,0,0,0,0,0,0,0,0,0,0,0,
0,0,0,0,0,0,0,0,0,0,0,0,0,0,0,0,0,0,
0,0,0,0,0,0,0,0,171,0,0,0,0,0,0,0,0,0,
0,0,0,0,0,0,172,0,0,0,0,0,0,0,0,0,0,0,
0,0,0,0,0,0,0,0,0,170,0,0,0,0,0,0,0,0,
0,0,0,0,0,0,0,0,0,0,0,169,0,0,0,0,0,0,
0,0,0,0,0,169,0,0,0,0,0,0,0,0,0,0,0,0,
0,0,0,0,173,0,0,0,0,0,0,172,0,0,0,0,0,0,
0,0,0,0,0,0,0,0,0,0,0,0,0,0,0,0,0,0,
0,0,0,0,0,0,0,0,0,0,0,0,0,0,0,0,0,0
</data>
 </layer>
 <objectgroup id="13" name="对象层 2" visible="0">
  <object id="46" gid="182" x="176" y="91" width="32" height="32"/>
  <object id="47" gid="407" x="112" y="107" width="-32" height="32"/>
 </objectgroup>
</map>
