<?xml version="1.0" encoding="UTF-8"?>
<map version="1.10" tiledversion="1.12.2" orientation="orthogonal" renderorder="right-down" width="28" height="23" tilewidth="16" tileheight="16" infinite="0" nextlayerid="18" nextobjectid="175">
 <tileset firstgid="1" source="water.tsj"/>
 <tileset firstgid="21" source="soil_island.tsj"/>
 <tileset firstgid="66" source="grass_01_island.tsj"/>
 <tileset firstgid="91" source="grass_01.tsj"/>
 <tileset firstgid="166" source="grass_01_shadow.tsj"/>
 <tileset firstgid="216" source="house.tsj"/>
 <tileset firstgid="220" source="bridge.tsj"/>
 <tileset firstgid="228" source="fence.tsj"/>
 <tileset firstgid="248" source="soil_field.tsj"/>
 <tileset firstgid="298" source="other.tsj"/>
 <tileset firstgid="312" source="water_island_ani.tsj"/>
 <tileset firstgid="368" source="water_island_ani02.tsj"/>
 <tileset firstgid="382" source="Crops.tsj"/>
 <tileset firstgid="414" source="soil_field_watering.tsj"/>
 <tileset firstgid="464" source="stone_01.tsj"/>
 <tileset firstgid="497" source="grass_02.tsj"/>
 <tileset firstgid="572" source="grass_decoration.tsj"/>
 <tileset firstgid="605" source="water_decoration.tsj"/>
 <tileset firstgid="610" source="grass_02_shadow.tsj"/>
 <tileset firstgid="660" source="grass_02_island.tsj"/>
 <tileset firstgid="685" source="girl_idle_f.tsj"/>
 <tileset firstgid="693" source="grass_03_island.tsj"/>
 <layer id="1" name="water" width="28" height="23">
  <data encoding="csv">
14,15,15,15,15,15,15,15,15,15,15,15,15,15,15,15,15,15,15,15,15,15,15,15,15,15,15,15,
19,20,15,15,18,15,15,18,15,19,15,15,15,15,15,15,19,19,15,15,15,15,15,15,15,15,15,15,
14,15,15,15,15,14,15,15,15,19,15,15,15,15,15,15,15,15,15,15,15,15,15,19,15,15,15,20,
19,20,15,16,312,2,2,2,2,2,2,313,20,15,14,15,19,20,15,15,15,15,15,15,15,15,15,15,
14,15,15,15,6,7,7,7,7,7,7,354,2,2,2,2,2,2,2,2,2,2,313,15,15,15,15,15,
19,20,18,15,6,7,7,7,7,7,7,7,7,7,7,7,7,7,7,7,7,7,7,2,313,16,15,15,
14,15,15,15,6,7,7,7,7,7,7,7,7,7,7,7,7,7,7,7,7,7,7,7,8,15,15,15,
19,20,15,15,6,7,7,7,7,7,7,7,7,7,7,7,7,7,7,7,7,7,7,7,8,15,16,15,
14,15,15,15,6,7,7,7,7,7,7,7,7,7,7,7,7,7,7,7,340,368,368,369,327,15,15,15,
19,20,18,15,6,7,7,7,7,7,7,340,368,369,368,369,368,369,368,369,327,19,18,15,14,17,15,15,
14,15,15,15,6,7,7,7,7,7,7,8,15,15,15,20,17,15,15,15,17,312,2,2,313,15,15,15,
19,20,19,17,6,7,7,7,7,7,7,9,313,15,312,2,2,2,2,2,2,355,7,7,8,19,15,15,
14,15,15,15,6,7,7,7,7,7,7,7,8,15,326,368,341,7,7,7,7,7,7,7,8,19,15,15,
19,20,15,15,6,7,7,7,7,7,7,7,8,15,16,19,326,341,7,7,7,7,7,7,8,14,15,17,
14,15,15,15,6,7,7,7,7,7,7,7,9,2,313,14,15,326,341,7,7,7,7,7,8,15,15,15,
19,20,17,15,6,7,7,7,7,7,7,7,7,7,354,313,15,15,6,7,7,7,7,7,8,15,15,18,
14,15,15,15,6,7,7,7,7,7,7,7,7,7,7,8,15,15,6,7,7,7,7,7,8,15,15,15,
19,20,15,16,6,7,7,7,7,7,7,7,7,7,7,354,2,2,355,7,7,7,7,7,8,15,15,18,
14,15,17,15,326,368,369,341,7,7,7,7,7,7,7,7,7,7,7,7,7,7,7,7,8,15,16,15,
19,20,18,15,16,15,15,6,7,7,7,7,7,7,7,7,7,7,7,7,7,7,7,7,8,15,15,15,
14,15,15,15,15,19,15,6,7,7,7,7,7,7,7,7,340,369,340,369,368,369,368,369,327,15,15,15,
19,20,15,20,15,15,15,326,368,369,368,369,368,369,368,369,368,369,327,15,15,15,15,18,15,15,20,15,
14,15,15,15,14,15,15,15,15,15,15,18,19,15,15,20,15,15,15,16,15,15,14,15,15,19,15,18
</data>
 </layer>
 <layer id="2" name="dao" width="28" height="23">
  <data encoding="csv">
0,0,0,0,0,0,0,0,0,0,0,0,0,0,0,0,0,0,0,0,0,0,0,0,0,0,0,0,
0,0,0,0,0,0,0,0,0,0,0,0,0,0,0,0,0,0,0,0,0,0,0,0,0,0,0,0,
0,0,0,0,0,0,0,0,0,0,0,0,0,0,0,0,0,0,0,0,0,0,0,0,0,0,0,0,
0,0,0,0,21,22,22,22,22,22,22,23,0,0,0,0,0,0,0,0,0,0,0,0,0,0,0,0,
0,0,0,0,30,31,31,31,31,31,31,33,22,22,22,22,22,22,22,22,22,22,23,0,0,0,0,0,
0,0,0,0,30,31,31,31,31,31,31,31,31,31,31,31,31,31,31,31,31,31,33,22,23,0,0,0,
0,0,0,0,30,31,31,31,31,31,31,31,31,31,31,31,31,31,31,31,31,31,31,31,32,0,0,0,
0,0,0,0,30,31,31,31,31,31,31,31,31,31,31,31,31,31,31,31,31,31,31,31,32,0,0,0,
0,0,0,0,30,31,31,31,31,31,31,31,31,31,31,31,31,31,31,31,24,40,40,40,41,0,0,0,
0,0,0,0,30,31,31,31,31,31,31,24,40,40,40,40,40,40,40,40,41,0,0,0,0,0,0,0,
0,0,0,0,30,31,31,31,31,31,31,32,0,0,0,0,0,0,0,0,0,21,22,22,23,0,0,0,
0,0,0,0,30,31,248,249,249,250,31,33,23,0,21,22,22,22,22,22,22,34,31,31,32,0,0,0,
0,0,0,0,30,31,258,259,259,260,251,31,32,0,39,40,25,31,31,31,31,31,31,31,32,0,0,0,
0,0,0,0,30,31,258,259,259,260,271,31,32,0,0,0,39,25,31,31,31,31,31,31,32,0,0,0,
0,0,0,0,30,31,268,269,269,270,281,31,33,22,23,0,0,39,25,31,31,31,31,31,32,0,0,0,
0,0,0,0,30,31,31,31,278,279,280,31,31,31,33,23,0,0,30,31,31,31,31,31,32,0,0,0,
0,0,0,0,30,31,31,31,31,31,31,31,31,31,31,32,0,0,30,31,31,31,31,31,32,0,0,0,
0,0,0,0,30,31,31,31,31,31,31,31,31,31,31,33,22,22,34,31,31,31,31,31,32,0,0,0,
0,0,0,0,39,40,40,25,31,31,31,31,31,31,31,31,31,31,31,31,31,31,31,31,32,0,0,0,
0,0,0,0,0,0,0,30,31,31,31,31,31,31,31,31,31,31,31,31,31,31,31,31,32,0,0,0,
0,0,0,0,0,0,0,30,31,31,31,31,31,31,31,31,31,31,24,40,40,40,40,40,41,0,0,0,
0,0,0,0,0,0,0,39,40,40,40,40,40,40,40,40,40,40,41,0,0,0,0,0,0,0,0,0,
0,0,0,0,0,0,0,0,0,0,0,0,0,0,0,0,0,0,0,0,0,0,0,0,0,0,0,0
</data>
 </layer>
 <layer id="13" name="浇水" width="28" height="23">
  <data encoding="csv">
0,0,0,0,0,0,0,0,0,0,0,0,0,0,0,0,0,0,0,0,0,0,0,0,0,0,0,0,
0,0,0,0,0,0,0,0,0,0,0,0,0,0,0,0,0,0,0,0,0,0,0,0,0,0,0,0,
0,0,0,0,0,0,0,0,0,0,0,0,0,0,0,0,0,0,0,0,0,0,0,0,0,0,0,0,
0,0,0,0,0,0,0,0,0,0,0,0,0,0,0,0,0,0,0,0,0,0,0,0,0,0,0,0,
0,0,0,0,0,0,0,0,0,0,0,0,0,0,0,0,0,0,0,0,0,0,0,0,0,0,0,0,
0,0,0,0,0,0,0,0,0,0,0,0,0,0,0,0,0,0,0,0,0,0,0,0,0,0,0,0,
0,0,0,0,0,0,0,0,0,0,0,0,0,0,0,0,0,0,0,0,0,0,0,0,0,0,0,0,
0,0,0,0,0,0,0,0,0,0,0,0,0,0,0,0,0,0,0,0,0,0,0,0,0,0,0,0,
0,0,0,0,0,0,0,0,0,0,0,0,0,0,0,0,0,0,0,0,0,0,0,0,0,0,0,0,
0,0,0,0,0,0,0,0,0,0,0,0,0,0,0,0,0,0,0,0,0,0,0,0,0,0,0,0,
0,0,0,0,0,0,0,0,0,0,0,0,0,0,0,0,0,0,0,0,0,0,0,0,0,0,0,0,
0,0,0,0,0,0,414,415,415,416,0,0,0,0,0,0,0,0,0,0,0,0,0,0,0,0,0,0,
0,0,0,0,0,0,424,425,425,426,417,0,0,0,0,0,0,0,0,0,0,0,0,0,0,0,0,0,
0,0,0,0,0,0,424,425,425,426,427,0,0,0,0,0,0,0,0,0,0,0,0,0,0,0,0,0,
0,0,0,0,0,0,434,425,425,436,437,0,0,0,0,0,0,0,0,0,0,0,0,0,0,0,0,0,
0,0,0,0,0,0,0,0,444,445,446,0,0,0,0,0,0,0,0,0,0,0,0,0,0,0,0,0,
0,0,0,0,0,0,0,0,0,0,0,0,0,0,0,0,0,0,0,0,0,0,0,0,0,0,0,0,
0,0,0,0,0,0,0,0,0,0,0,0,0,0,0,0,0,0,0,0,0,0,0,0,0,0,0,0,
0,0,0,0,0,0,0,0,0,0,0,0,0,0,0,0,0,0,0,0,0,0,0,0,0,0,0,0,
0,0,0,0,0,0,0,0,0,0,0,0,0,0,0,0,0,0,0,0,0,0,0,0,0,0,0,0,
0,0,0,0,0,0,0,0,0,0,0,0,0,0,0,0,0,0,0,0,0,0,0,0,0,0,0,0,
0,0,0,0,0,0,0,0,0,0,0,0,0,0,0,0,0,0,0,0,0,0,0,0,0,0,0,0,
0,0,0,0,0,0,0,0,0,0,0,0,0,0,0,0,0,0,0,0,0,0,0,0,0,0,0,0
</data>
 </layer>
 <layer id="3" name="cao" width="28" height="23">
  <data encoding="csv">
0,0,0,0,0,0,0,0,0,0,0,0,0,0,0,0,0,0,0,0,0,0,0,0,0,0,0,0,
0,0,0,0,0,0,0,0,0,0,0,0,0,0,0,0,0,0,0,0,0,0,0,0,0,0,0,0,
0,0,0,0,0,0,0,0,0,0,0,0,0,0,0,0,0,0,0,0,0,0,0,0,0,0,0,0,
0,0,0,0,66,67,67,67,67,67,67,68,0,0,0,0,0,0,0,0,0,0,0,0,0,0,0,0,
0,0,0,0,71,72,72,72,72,72,72,74,67,67,67,67,67,67,67,67,67,67,68,0,0,0,0,0,
0,0,0,0,71,166,167,167,167,167,168,72,72,72,107,107,107,148,149,107,146,107,74,67,68,0,0,0,
0,0,0,0,71,186,182,177,177,177,191,167,167,168,133,107,147,107,107,107,107,107,107,107,73,0,0,0,
0,0,0,0,71,186,176,177,177,177,177,177,181,188,107,107,107,107,107,107,107,107,107,107,73,0,0,0,
0,0,0,0,71,107,186,187,187,187,187,187,188,188,107,107,107,107,107,107,69,77,86,77,78,0,0,0,
0,0,0,0,71,150,107,107,134,107,107,69,77,77,77,77,77,77,77,77,78,0,0,0,0,0,0,0,
0,0,0,0,71,111,122,122,122,122,112,73,0,0,0,0,0,0,0,0,0,66,67,67,68,0,0,0,
0,0,0,0,71,108,0,0,0,0,121,160,68,0,66,67,67,67,67,67,67,75,107,107,73,0,0,0,
0,0,0,0,71,73,0,0,0,0,0,106,73,0,76,77,70,107,107,107,101,146,107,107,73,0,0,0,
0,0,0,0,71,73,0,0,0,0,0,71,73,0,0,0,76,70,107,134,107,107,134,107,73,0,0,0,
0,0,0,0,71,73,0,0,0,0,0,71,74,67,68,0,0,76,70,107,107,107,107,163,73,0,0,0,
0,0,0,0,71,74,67,68,0,0,0,71,107,102,74,68,0,0,71,149,107,107,107,107,73,0,0,0,
0,0,0,0,71,107,116,74,67,67,67,75,107,107,103,73,0,0,71,116,107,107,107,107,73,0,0,0,
0,0,0,0,71,107,107,149,107,107,146,148,107,150,72,694,92,92,75,107,107,107,150,107,73,0,0,0,
0,0,0,0,76,77,77,698,107,107,107,146,107,107,72,72,72,72,107,107,118,107,107,146,73,0,0,0,
0,0,0,0,0,0,0,698,699,699,699,699,699,699,699,699,699,699,147,107,107,107,149,107,73,0,0,0,
0,0,0,0,0,0,0,698,699,699,699,699,699,699,699,699,699,699,696,77,77,77,77,77,78,0,0,0,
0,0,0,0,0,0,0,703,704,704,704,704,713,704,704,704,704,704,705,0,0,0,0,0,0,0,0,0,
0,0,0,0,0,0,0,0,0,0,0,0,0,0,0,0,0,0,0,0,0,0,0,0,0,0,0,0
</data>
 </layer>
 <layer id="16" name="图块层 13" width="28" height="23">
  <data encoding="csv">
0,0,0,0,0,0,0,0,0,0,0,0,0,0,0,0,0,0,0,0,0,0,0,0,0,0,0,0,
0,0,0,0,0,0,0,0,0,0,0,0,0,0,0,0,0,0,0,0,0,0,0,0,0,0,0,0,
0,0,0,0,0,0,0,0,0,0,0,0,0,0,0,0,0,0,0,0,0,0,0,0,0,0,0,0,
0,0,0,0,0,0,0,0,0,0,0,0,0,0,0,0,0,0,0,0,0,0,0,0,0,0,0,0,
0,0,0,0,0,0,0,0,0,0,0,0,0,0,0,0,0,0,0,0,0,0,0,0,0,0,0,0,
0,0,0,0,0,0,0,0,0,0,0,0,0,0,0,0,0,0,0,0,0,0,0,0,0,0,0,0,
0,0,0,0,0,0,0,0,0,0,0,0,0,0,0,0,0,0,0,0,0,0,0,0,0,0,0,0,
0,0,0,0,0,0,0,0,0,0,0,0,0,0,0,0,0,0,0,0,0,0,0,0,0,0,0,0,
0,0,0,0,0,0,0,0,0,0,0,0,0,0,0,0,0,0,0,0,0,0,0,0,0,0,0,0,
0,0,0,0,0,0,0,0,0,0,0,0,0,0,0,0,0,0,0,0,0,0,0,0,0,0,0,0,
0,0,0,0,0,0,0,0,0,0,0,0,0,0,0,0,0,0,0,0,0,0,0,0,0,0,0,0,
0,0,0,0,0,0,0,0,0,0,0,0,0,0,0,0,0,0,0,0,0,0,0,0,0,0,0,0,
0,0,0,0,0,0,0,0,0,0,0,0,0,0,0,0,0,0,0,0,0,0,0,0,0,0,0,0,
0,0,0,0,0,0,0,0,0,0,0,0,0,0,0,0,0,0,0,0,0,0,0,0,0,0,0,0,
0,0,0,0,0,0,0,0,0,0,0,0,0,0,0,0,0,0,0,0,0,0,0,0,0,0,0,0,
0,0,0,0,0,0,0,0,0,0,0,0,0,0,0,0,0,0,0,0,0,0,0,0,0,0,0,0,
0,0,0,0,0,0,0,0,0,0,0,0,0,0,0,0,0,0,0,0,0,0,0,0,0,0,0,0,
0,0,0,0,0,0,0,0,0,0,0,0,0,0,0,0,0,0,0,0,0,0,0,0,0,0,0,0,
0,0,0,0,0,0,0,0,0,0,0,0,0,0,0,107,107,107,107,0,0,0,0,0,0,0,0,0,
0,0,0,0,0,0,0,0,0,0,0,0,0,71,72,72,72,72,123,0,0,0,0,0,0,0,0,0,
0,0,0,0,0,0,0,0,0,0,0,0,0,76,77,77,77,77,77,0,0,0,0,0,0,0,0,0,
0,0,0,0,0,0,0,0,0,0,0,0,0,0,0,0,0,0,0,0,0,0,0,0,0,0,0,0,
0,0,0,0,0,0,0,0,0,0,0,0,0,0,0,0,0,0,0,0,0,0,0,0,0,0,0,0
</data>
 </layer>
 <layer id="15" name="岛屿" width="28" height="23">
  <data encoding="csv">
0,0,0,0,0,0,0,0,0,0,0,0,0,0,0,0,0,0,0,0,0,0,0,0,0,0,0,0,
0,0,0,0,0,0,0,0,0,0,0,0,0,0,0,0,0,0,0,0,0,0,0,0,0,0,0,0,
0,0,0,0,0,0,0,0,0,0,0,0,0,0,0,0,0,0,0,0,0,0,0,0,0,0,0,0,
0,0,0,0,0,0,0,0,0,0,0,0,0,0,0,0,0,0,0,0,0,0,0,0,0,0,0,0,
0,0,0,0,0,0,0,0,0,0,0,0,0,0,0,0,0,0,0,0,0,0,0,0,0,0,0,0,
0,0,0,0,0,0,0,0,0,0,0,0,0,0,0,0,0,0,0,0,0,0,0,0,0,0,0,0,
0,0,0,0,0,0,0,0,0,0,0,0,0,0,0,0,0,0,0,0,0,0,0,0,0,0,0,0,
0,0,0,0,0,0,0,0,0,0,0,0,0,0,0,0,0,0,0,0,0,0,0,0,0,0,0,0,
0,0,0,0,0,0,0,0,0,0,0,0,0,0,0,0,0,0,0,0,0,0,0,0,0,0,0,0,
0,0,0,0,0,0,0,0,0,0,0,0,0,0,0,0,0,0,0,0,0,0,0,0,0,0,0,0,
0,0,0,0,0,0,0,0,0,0,0,0,0,0,0,0,0,0,0,0,0,0,0,0,0,0,0,0,
0,0,0,0,0,0,0,0,0,0,0,0,0,0,0,0,0,0,0,0,0,0,0,0,0,0,0,0,
0,0,0,0,0,0,0,0,0,0,0,0,0,0,0,0,0,0,0,0,0,0,0,0,0,0,0,0,
0,0,0,0,0,0,0,0,0,0,0,0,0,0,0,0,0,0,0,0,0,0,0,0,0,0,0,0,
0,0,0,0,0,0,0,0,0,0,0,0,0,0,0,0,0,0,0,0,0,0,0,0,0,0,0,0,
0,0,0,0,0,0,0,0,0,0,0,0,0,0,0,0,0,0,0,0,0,0,0,0,0,0,0,0,
0,0,0,0,0,0,0,0,0,0,0,0,0,0,0,0,0,0,0,0,0,0,0,0,0,0,0,0,
0,0,0,0,0,0,0,0,0,0,0,0,0,0,0,0,23,0,0,0,0,0,0,0,0,0,0,0,
0,0,0,0,0,0,0,40,25,0,0,0,0,0,0,0,32,0,0,0,0,0,0,0,0,0,0,0,
0,0,0,0,0,0,0,0,39,40,40,40,40,40,42,43,41,0,0,0,0,0,0,0,0,0,0,0,
0,0,0,0,0,0,0,0,0,0,0,0,0,0,0,0,0,0,0,0,0,0,0,0,0,0,0,0,
0,0,0,0,0,0,0,0,0,0,0,0,0,0,0,0,0,0,0,0,0,0,0,0,0,0,0,0,
0,0,18,0,14,0,18,18,0,0,0,0,0,0,0,0,0,0,0,0,0,0,0,0,0,0,0,0
</data>
 </layer>
 <layer id="14" name="cao2" width="28" height="23">
  <data encoding="csv">
0,0,0,0,0,0,0,0,0,0,0,0,0,0,0,0,0,0,0,0,0,0,0,0,0,0,0,0,
0,0,0,0,0,0,0,0,0,0,0,0,0,0,0,0,0,0,0,0,0,0,0,0,0,0,0,0,
0,0,0,0,0,0,0,0,0,0,0,0,0,0,0,0,0,0,0,0,0,0,0,0,0,0,0,0,
0,0,0,0,0,0,0,0,0,0,0,0,0,0,0,0,0,0,0,0,0,0,0,0,0,0,0,0,
0,0,0,0,0,0,0,0,0,0,0,0,0,0,0,0,0,0,0,0,0,0,0,0,0,0,0,0,
0,0,0,0,0,0,0,0,0,0,0,0,0,0,0,0,0,0,0,0,0,0,0,0,0,0,0,0,
0,0,0,0,0,0,0,0,0,0,0,0,0,0,0,0,0,0,0,0,0,0,0,0,0,0,0,0,
0,0,0,0,0,199,0,0,0,0,0,0,0,0,0,0,0,0,0,0,0,0,0,0,0,0,0,0,
0,0,0,0,0,0,0,0,0,0,0,0,0,199,0,0,0,0,0,0,0,0,0,0,0,0,0,0,
0,0,0,0,0,0,0,0,0,0,0,0,0,0,0,0,0,0,0,0,0,0,0,0,0,0,0,0,
0,0,0,0,0,0,0,0,0,0,0,0,0,0,0,0,0,0,0,0,0,497,498,498,499,0,0,0,
0,0,0,0,0,0,0,0,0,0,0,0,0,0,0,0,0,0,0,0,0,512,643,643,514,0,0,0,
0,0,0,0,0,0,0,0,0,0,0,0,0,0,0,0,0,0,0,0,0,527,528,528,529,0,0,0,
0,0,0,0,0,0,0,0,0,0,0,0,0,0,0,0,0,0,0,0,0,0,0,0,0,0,0,0,
0,0,0,0,497,499,0,0,0,0,0,0,0,0,0,0,0,0,0,0,0,0,0,0,0,0,0,0,
0,0,0,0,512,514,0,0,0,0,0,0,0,0,0,0,0,0,0,0,0,0,0,0,0,0,0,0,
0,0,0,0,546,547,544,0,0,0,0,0,497,498,499,74,68,0,0,497,498,498,498,498,499,0,0,0,
0,0,0,0,0,0,0,0,0,0,0,497,643,537,514,72,73,0,0,512,610,611,611,612,514,0,0,0,
0,0,0,0,0,0,0,77,70,0,0,527,528,528,529,0,73,0,497,533,620,621,621,622,514,0,0,0,
0,0,0,0,0,0,0,0,76,77,77,77,77,77,81,82,78,0,665,640,646,631,631,632,514,0,0,0,
0,0,0,0,0,0,0,0,0,0,0,0,0,0,0,0,0,0,670,671,671,671,671,671,672,0,0,0,
0,0,0,0,0,0,0,0,0,0,0,0,0,0,0,0,0,0,0,0,0,0,0,0,0,0,0,0,
0,0,0,0,0,0,0,0,0,0,0,0,0,0,0,0,0,0,0,0,0,0,0,0,0,0,0,0
</data>
 </layer>
 <layer id="8" name="道具" width="28" height="23">
  <data encoding="csv">
0,0,0,0,0,0,0,0,0,0,0,0,0,0,0,0,0,0,0,0,0,0,0,0,0,0,0,0,
0,0,0,0,0,0,0,0,0,0,0,0,0,0,0,0,0,0,0,0,0,0,0,0,0,0,0,0,
0,0,0,0,0,0,0,0,0,0,0,0,0,0,0,0,0,0,0,0,0,0,0,0,0,0,0,0,
0,0,0,0,0,0,0,0,0,0,0,0,0,0,0,0,0,0,0,0,0,0,0,0,0,0,0,0,
0,0,0,0,0,0,0,0,0,0,0,0,0,0,0,0,0,0,0,0,0,301,0,0,0,0,0,0,
0,0,0,0,0,0,0,0,0,0,0,0,0,0,0,0,0,0,0,0,0,308,307,0,0,0,0,0,
0,0,0,0,0,0,0,0,0,0,0,0,0,0,0,0,0,0,0,0,0,0,0,0,0,0,0,0,
0,0,0,0,0,0,0,0,0,0,0,0,0,0,0,0,0,0,0,0,0,0,0,0,0,0,0,0,
0,0,0,0,0,0,0,0,0,0,0,0,0,0,0,0,0,0,0,0,0,0,0,0,0,0,0,0,
0,0,0,0,0,0,601,0,0,0,0,0,0,0,0,0,0,0,0,0,0,0,0,0,0,0,0,0,
0,0,0,0,0,0,0,0,0,0,0,0,0,0,0,0,0,0,0,0,0,0,0,0,0,0,0,0,
0,0,0,0,0,0,0,0,0,0,0,0,0,0,0,574,0,0,0,0,0,0,0,0,0,0,0,0,
0,0,0,0,0,580,0,0,0,0,0,0,585,0,0,0,0,0,601,0,0,0,0,0,0,0,0,0,
0,0,0,0,0,0,0,0,0,0,0,0,0,0,0,0,0,0,0,0,0,0,0,0,0,0,0,0,
0,0,0,0,0,0,0,0,0,0,0,0,0,0,0,0,0,0,0,0,0,0,0,0,0,0,0,0,
0,0,0,0,0,0,0,0,0,0,0,0,0,0,0,0,0,0,0,0,0,0,0,0,0,0,0,0,
0,0,0,0,0,0,0,0,0,0,0,0,0,0,0,0,0,0,0,0,0,0,0,0,0,0,0,0,
0,0,0,0,0,0,0,0,0,0,0,0,0,0,0,0,0,0,0,0,0,0,0,0,0,0,0,0,
0,0,0,0,0,0,0,0,0,0,0,0,0,0,0,0,0,0,0,0,0,0,0,0,0,0,0,0,
0,0,0,0,0,0,0,0,0,0,0,0,0,0,0,0,0,0,0,0,0,0,0,0,0,0,0,0,
0,0,0,0,0,0,0,0,0,0,0,0,0,0,0,0,0,0,0,0,0,0,0,0,0,0,0,0,
0,0,0,0,0,0,0,0,0,0,0,0,0,0,0,0,0,0,0,0,0,0,0,0,0,0,0,0,
0,0,0,0,0,0,0,0,0,0,0,0,0,0,0,0,0,0,0,0,0,0,0,0,0,0,0,0
</data>
 </layer>
 <layer id="5" name="house" width="28" height="23">
  <data encoding="csv">
0,0,0,0,0,0,0,0,0,0,0,0,0,0,0,0,0,0,0,0,0,0,0,0,0,0,0,0,
0,0,0,0,0,0,0,0,0,0,0,0,0,0,0,0,0,0,0,0,0,0,0,0,0,0,0,0,
0,0,0,0,0,0,0,0,0,0,0,0,0,0,0,0,0,0,0,0,0,0,0,0,0,0,0,0,
0,0,0,0,0,0,0,0,0,0,0,0,0,0,0,0,0,0,0,0,0,0,0,0,0,0,0,0,
0,0,0,0,0,0,0,0,0,0,0,0,0,0,0,0,0,0,0,0,0,0,0,0,0,0,0,0,
0,0,0,0,0,0,0,0,0,0,0,0,0,0,0,0,0,0,0,0,0,0,0,0,0,0,0,0,
0,0,0,0,0,0,0,0,0,0,0,0,0,0,0,218,0,0,0,0,0,0,0,0,0,0,0,0,
0,0,0,0,0,0,0,0,0,0,0,0,0,0,0,0,216,0,0,0,0,0,0,0,0,0,0,0,
0,0,0,0,0,0,0,0,0,0,0,0,0,0,0,0,0,0,0,0,0,0,0,0,0,0,0,0,
0,0,0,0,0,0,0,0,0,0,0,0,0,0,0,0,0,0,0,0,0,0,0,0,0,0,0,0,
0,0,0,0,0,0,0,0,0,0,0,0,0,0,0,0,0,0,0,0,0,0,0,0,0,0,0,0,
0,0,0,0,0,0,0,0,0,0,0,0,0,0,0,0,0,0,0,0,0,0,0,0,0,0,0,0,
0,0,0,0,0,0,0,0,0,0,0,0,0,0,0,0,0,0,0,0,0,0,0,0,0,0,0,0,
0,0,0,0,0,0,0,0,0,0,0,0,0,0,0,0,0,0,0,0,0,0,0,0,0,0,0,0,
0,0,0,0,0,0,0,0,0,0,0,0,0,0,0,0,0,0,0,0,0,0,0,0,0,0,0,0,
0,0,0,0,0,0,0,0,0,0,0,0,0,0,0,0,0,0,0,0,0,0,0,0,0,0,0,0,
0,0,0,0,0,0,0,0,0,0,0,0,0,0,0,0,0,0,0,0,0,0,0,0,0,0,0,0,
0,0,0,0,0,0,0,0,0,0,0,0,0,0,0,0,0,0,0,0,0,0,0,0,0,0,0,0,
0,0,0,0,0,0,0,0,0,0,0,0,0,0,0,0,0,0,0,0,0,0,0,0,0,0,0,0,
0,0,0,0,0,0,0,0,0,0,0,0,0,0,0,0,0,0,0,0,0,0,0,0,0,0,0,0,
0,0,0,0,0,0,0,0,0,0,0,0,0,0,0,0,0,0,0,0,0,0,0,0,0,0,0,0,
0,0,0,0,0,0,0,0,0,0,0,0,0,0,0,0,0,0,0,0,0,0,0,0,0,0,0,0,
0,0,0,0,0,0,0,0,0,0,0,0,0,0,0,0,0,0,0,0,0,0,0,0,0,0,0,0
</data>
 </layer>
 <layer id="6" name="zhuangshi1" width="28" height="23">
  <data encoding="csv">
0,0,0,0,0,0,0,0,0,0,0,0,0,0,0,0,0,0,0,0,0,0,0,0,0,0,0,0,
0,0,0,0,0,0,0,0,0,0,0,0,0,0,0,0,0,0,0,0,0,0,0,0,0,0,0,0,
0,0,0,0,0,0,0,0,0,0,0,0,0,0,0,0,0,0,0,0,0,0,0,0,0,0,0,0,
0,0,0,0,0,0,0,0,0,0,0,0,0,0,0,0,0,0,0,0,0,0,0,0,0,0,0,0,
0,0,0,0,0,0,0,0,0,0,0,0,0,0,0,0,0,0,0,0,0,0,0,0,0,0,0,0,
0,0,0,0,0,0,0,0,0,0,0,0,0,0,579,305,0,0,0,0,0,0,0,0,0,0,0,0,
0,0,0,0,0,0,0,592,0,0,0,0,0,0,0,0,0,0,0,0,0,0,306,0,0,0,0,0,
0,0,0,0,0,0,0,0,0,0,0,0,0,0,0,0,300,298,0,299,0,0,0,593,0,0,0,0,
0,0,0,0,0,0,0,0,580,574,602,0,0,592,602,585,0,0,0,0,0,0,0,0,0,0,0,0,
0,0,0,0,0,0,0,0,0,582,0,0,0,0,0,0,0,0,220,221,0,0,0,0,0,0,0,0,
0,0,0,0,0,238,229,240,229,229,239,602,0,605,0,608,681,0,222,223,0,0,0,0,0,0,0,0,
0,0,0,0,593,236,0,0,0,0,243,239,0,0,0,0,0,0,226,227,0,0,0,0,0,0,0,0,
0,0,0,0,0,236,0,0,0,0,0,241,0,0,0,0,0,0,0,0,0,0,0,0,0,0,0,0,
0,0,0,0,0,236,0,0,0,0,0,246,0,609,88,606,0,0,0,0,0,579,0,580,0,609,605,0,
0,0,0,0,0,236,0,0,0,0,0,231,593,0,0,0,0,0,0,0,602,0,0,0,0,0,608,0,
0,0,0,0,592,243,229,239,0,0,0,236,602,0,0,0,607,0,0,0,0,0,0,0,0,606,0,0,
0,0,0,0,0,0,0,241,0,228,229,244,0,591,0,601,0,0,0,0,598,0,591,0,0,0,0,0,
0,0,0,87,0,0,0,0,585,0,0,0,0,0,0,579,582,0,0,0,0,588,0,0,598,0,0,0,
0,0,0,0,0,0,0,715,0,601,0,0,0,0,0,0,0,576,0,604,0,0,600,0,0,0,0,0,
0,0,0,0,0,0,605,0,714,0,715,714,0,682,0,0,716,602,0,0,0,0,0,0,0,0,0,0,
0,0,0,606,0,608,0,0,582,585,0,575,0,0,585,0,0,0,0,0,220,221,0,0,0,0,0,0,
0,0,0,0,0,0,0,0,0,0,0,0,0,0,0,0,0,0,0,0,224,225,0,0,0,0,0,0,
0,0,0,0,0,0,0,0,0,0,0,0,0,0,0,0,0,0,0,0,0,0,0,0,0,0,0,0
</data>
 </layer>
 <layer id="7" name="道具" width="28" height="23">
  <data encoding="csv">
0,0,0,0,0,0,0,0,0,0,0,0,0,0,0,0,0,0,0,0,0,0,0,0,0,0,0,0,
0,0,0,0,0,0,0,0,0,0,0,0,0,0,0,0,0,0,0,0,0,0,0,0,0,0,0,0,
0,0,0,0,0,0,0,0,0,0,0,0,0,0,0,0,0,0,0,0,0,0,0,0,0,0,0,0,
0,0,0,0,0,0,0,0,0,0,0,0,0,0,0,0,0,0,0,0,0,0,0,0,0,0,0,0,
0,0,0,0,0,0,0,0,0,0,0,0,0,0,0,0,0,0,0,0,0,0,0,0,0,0,0,0,
0,0,0,0,0,0,0,0,0,0,0,0,0,0,0,0,0,0,0,0,0,301,0,0,0,0,0,0,
0,0,0,0,0,0,0,0,0,0,0,0,0,0,0,302,0,0,0,0,0,308,0,304,0,0,0,0,
0,0,0,0,0,0,0,0,0,0,0,0,0,0,0,309,0,0,0,0,0,0,0,0,0,0,0,0,
0,0,0,0,0,0,0,0,0,0,0,0,0,0,0,0,0,310,303,310,0,0,0,0,0,0,0,0,
0,0,0,0,0,0,0,0,0,0,0,0,0,0,0,0,0,0,0,0,0,0,0,0,0,0,0,0,
0,0,0,0,0,0,0,0,0,0,0,0,0,0,0,0,0,0,0,0,0,0,0,0,0,0,0,0,
0,0,0,0,0,0,0,0,0,0,0,0,0,0,0,0,0,0,0,0,0,0,0,0,0,0,0,0,
0,0,0,0,0,0,0,0,0,0,0,0,0,0,0,0,0,0,0,0,0,0,0,0,0,0,0,0,
0,0,0,0,0,0,0,0,0,0,0,0,0,0,0,0,0,0,0,0,0,0,0,0,0,0,0,0,
0,0,0,0,0,0,0,0,0,0,0,0,0,0,0,0,0,0,0,0,0,0,0,0,0,0,0,0,
0,0,0,0,0,0,0,0,0,0,0,0,0,0,0,0,0,0,0,0,0,0,0,0,0,0,0,0,
0,0,0,0,0,0,0,0,0,0,0,0,0,0,0,0,0,0,0,0,0,0,0,0,0,0,0,0,
0,0,0,0,0,0,0,0,0,0,0,0,0,0,0,0,0,0,0,0,0,0,0,0,0,0,0,0,
0,0,0,0,0,0,0,0,0,0,0,0,0,0,0,0,0,0,0,0,0,0,0,0,0,0,0,0,
0,0,0,0,0,0,0,0,0,0,0,0,0,0,0,0,0,0,0,0,0,0,0,0,0,0,0,0,
0,0,0,0,0,0,0,0,0,0,0,0,0,0,0,0,0,0,0,0,0,0,0,0,0,0,0,0,
0,0,0,0,0,0,0,0,0,0,0,0,0,0,0,0,0,0,0,0,0,0,0,0,0,0,0,0,
0,0,0,0,0,0,0,0,0,0,0,0,0,0,0,0,0,0,0,0,0,0,0,0,0,0,0,0
</data>
 </layer>
 <layer id="12" name="植物02" width="28" height="23">
  <data encoding="csv">
0,0,0,0,0,0,0,0,0,0,0,0,0,0,0,0,0,0,0,0,0,0,0,0,0,0,0,0,
0,0,0,0,0,0,0,0,0,0,0,0,0,0,0,0,0,0,0,0,0,0,0,0,0,0,0,0,
0,0,0,0,0,0,0,0,0,0,0,0,0,0,0,0,0,0,0,0,0,0,0,0,0,0,0,0,
0,0,0,0,0,0,0,0,0,0,0,0,0,0,0,0,0,0,0,0,0,0,0,0,0,0,0,0,
0,0,0,0,0,0,0,0,0,0,0,0,0,0,0,0,0,0,0,0,0,0,0,0,0,0,0,0,
0,0,0,0,0,0,0,0,0,0,0,0,0,0,0,0,0,0,0,0,0,0,0,0,0,0,0,0,
0,0,0,0,0,0,0,0,0,0,0,0,0,0,0,0,0,0,0,0,0,0,0,0,0,0,0,0,
0,0,0,0,0,0,0,0,0,0,0,0,0,0,0,0,0,0,0,0,0,0,0,0,0,0,0,0,
0,0,0,0,0,0,0,0,0,0,0,0,0,0,0,0,0,0,0,0,0,0,0,0,0,0,0,0,
0,0,0,0,0,0,0,0,0,0,0,0,0,0,0,0,0,0,0,0,0,0,0,0,0,0,0,0,
0,0,0,0,0,0,0,0,0,0,0,0,0,0,0,0,0,0,0,0,0,0,0,0,0,0,0,0,
0,0,0,0,0,0,412,413,410,411,0,0,0,0,0,0,0,0,0,0,0,0,0,0,0,0,0,0,
0,0,0,0,0,0,0,0,0,0,0,0,0,0,0,0,0,0,0,0,0,0,0,0,0,0,0,0,
0,0,0,0,0,0,0,0,0,0,0,0,0,0,0,0,0,0,0,0,0,0,0,0,0,0,0,0,
0,0,0,0,0,0,0,0,0,0,0,0,0,0,0,0,0,0,0,0,0,0,0,0,0,0,0,0,
0,0,0,0,0,0,0,0,0,0,0,0,0,0,0,0,0,0,0,0,0,0,0,0,0,0,0,0,
0,0,0,0,0,0,0,0,0,0,0,0,0,0,0,0,0,0,0,0,0,0,0,0,0,0,0,0,
0,0,0,0,0,0,0,0,0,0,0,0,0,0,0,0,0,0,0,0,0,0,0,0,0,0,0,0,
0,0,0,0,0,0,0,0,0,0,0,0,0,0,0,0,0,0,0,0,0,0,0,0,0,0,0,0,
0,0,0,0,0,0,0,0,0,0,0,0,0,0,0,0,0,0,0,0,0,0,0,0,0,0,0,0,
0,0,0,0,0,0,0,0,0,0,0,0,0,0,0,0,0,0,0,0,0,0,0,0,0,0,0,0,
0,0,0,0,0,0,0,0,0,0,0,0,0,0,0,0,0,0,0,0,0,0,0,0,0,0,0,0,
0,0,0,0,0,0,0,0,0,0,0,0,0,0,0,0,0,0,0,0,0,0,0,0,0,0,0,0
</data>
 </layer>
 <layer id="11" name="植物" width="28" height="23">
  <data encoding="csv">
0,0,0,0,0,0,0,0,0,0,0,0,0,0,0,0,0,0,0,0,0,0,0,0,0,0,0,0,
0,0,0,0,0,0,0,0,0,0,0,0,0,0,0,0,0,0,0,0,0,0,0,0,0,0,0,0,
0,0,0,0,0,0,0,0,0,0,0,0,0,0,0,0,0,0,0,0,0,0,0,0,0,0,0,0,
0,0,0,0,0,0,0,0,0,0,0,0,0,0,0,0,0,0,0,0,0,0,0,0,0,0,0,0,
0,0,0,0,0,0,0,0,0,0,0,0,0,0,0,0,0,0,0,0,0,0,0,0,0,0,0,0,
0,0,0,0,0,0,0,0,0,0,0,0,0,0,0,0,0,0,0,0,0,0,0,0,0,0,0,0,
0,0,0,0,0,0,0,0,0,0,0,0,0,0,0,0,0,0,0,0,0,0,0,0,0,0,0,0,
0,0,0,0,0,0,0,0,0,0,0,0,0,0,0,0,0,0,0,0,0,0,0,0,0,0,0,0,
0,0,0,0,0,0,0,0,0,0,0,0,0,0,0,0,0,0,0,0,0,0,0,0,0,0,0,0,
0,0,0,0,0,0,0,0,0,0,0,0,0,0,0,0,0,0,0,0,0,0,0,0,0,0,0,0,
0,0,0,0,0,0,0,0,0,0,0,0,0,0,0,0,0,0,0,0,0,0,0,0,0,0,0,0,
0,0,0,0,0,0,0,0,0,0,0,0,0,0,0,0,0,0,0,0,0,0,0,0,0,0,0,0,
0,0,0,0,0,0,406,407,408,409,384,0,0,0,0,0,0,0,0,0,0,0,0,0,0,0,0,0,
0,0,0,0,0,0,386,387,388,389,385,0,0,0,0,0,0,0,0,0,0,0,0,0,0,0,0,0,
0,0,0,0,0,0,398,399,400,401,405,0,0,0,0,0,0,0,0,0,0,0,0,0,0,0,0,0,
0,0,0,0,0,0,0,0,390,392,393,0,0,0,0,0,0,0,0,0,0,0,0,0,0,0,0,0,
0,0,0,0,0,0,0,0,0,0,0,0,0,0,0,0,0,0,0,0,0,0,0,0,0,0,0,0,
0,0,0,0,0,0,0,0,0,0,0,0,0,0,0,0,0,0,0,0,0,0,0,0,0,0,0,0,
0,0,0,0,0,0,0,0,0,0,0,0,0,0,0,0,0,0,0,0,0,0,0,0,0,0,0,0,
0,0,0,0,0,0,0,0,0,0,0,0,0,0,0,0,0,0,0,0,0,0,0,0,0,0,0,0,
0,0,0,0,0,0,0,0,0,0,0,0,0,0,0,0,0,0,0,0,0,0,0,0,0,0,0,0,
0,0,0,0,0,0,0,0,0,0,0,0,0,0,0,0,0,0,0,0,0,0,0,0,0,0,0,0,
0,0,0,0,0,0,0,0,0,0,0,0,0,0,0,0,0,0,0,0,0,0,0,0,0,0,0,0
</data>
 </layer>
 <objectgroup id="10" name="植物">
  <object id="22" gid="467" x="332" y="132.5" width="32" height="32"/>
  <object id="23" gid="467" x="257" y="199" width="32" height="32"/>
  <object id="24" gid="467" x="67" y="279" width="32" height="32"/>
  <object id="35" gid="480" x="350.045" y="170.227" width="17.5" height="17.5"/>
  <object id="37" gid="481" x="342.864" y="178.864" width="12" height="13.25"/>
  <object id="38" gid="482" x="356.318" y="185.045" width="16" height="16"/>
  <object id="39" gid="483" x="374.773" y="188.909" width="16" height="16"/>
  <object id="40" gid="481" x="342.273" y="196.409" width="16" height="16"/>
  <object id="41" gid="480" x="368.955" y="202.773" width="14.25" height="15"/>
  <object id="47" gid="464" x="368.242" y="180.758" width="16" height="16"/>
  <object id="48" gid="466" x="319.697" y="189.545" width="16" height="16"/>
  <object id="52" gid="465" x="378.667" y="95.333" width="16" height="16"/>
  <object id="55" gid="464" x="185.034" y="280.727" width="16" height="16"/>
  <object id="56" gid="470" x="90.4557" y="156.474" width="16.4945" height="16.4945"/>
  <object id="58" gid="468" x="384" y="199.25" width="16" height="16"/>
  <object id="60" gid="474" x="350.5" y="205" width="16" height="16"/>
  <object id="65" gid="467" x="369.5" y="173.5" width="32" height="32"/>
  <object id="73" gid="487" x="69.6493" y="112.217" width="16.4945" height="49.4834"/>
  <object id="74" gid="487" x="113.298" y="119.581" width="16.4945" height="49.4834"/>
  <object id="78" gid="487" x="145.352" y="101.908" width="16.4945" height="49.4834"/>
  <object id="82" gid="484" x="112.973" y="91.6953" width="32.0496" height="47.0592"/>
  <object id="85" gid="484" x="124.851" y="134.773" width="32.989" height="49.4834"/>
  <object id="86" gid="484" x="131.932" y="111.578" width="41.7535" height="61.1007"/>
  <object id="88" gid="484" x="173.702" y="140.567" width="32.989" height="49.4834"/>
  <object id="90" gid="488" x="201.778" y="121.501" width="16.4945" height="49.4834"/>
  <object id="93" gid="488" x="95.4113" y="140.505" width="16.4945" height="49.4834"/>
  <object id="94" gid="488" x="170.334" y="82.5883" width="16.4945" height="49.4834"/>
  <object id="95" gid="488" x="79.1182" y="80.602" width="20.9617" height="59.7925"/>
  <object id="96" gid="491" x="71.5807" y="141.82" width="16.4945" height="32.989"/>
  <object id="102" gid="489" x="95.2037" y="107.155" width="39.1744" height="56.0125"/>
  <object id="103" gid="494" x="133.239" y="122.011" width="16.4945" height="16.4945"/>
  <object id="105" gid="489" x="172.328" y="113.763" width="32.989" height="49.4834"/>
  <object id="106" gid="472" x="123.667" y="150.333" width="16" height="16"/>
  <object id="107" gid="473" x="198.69" y="80.4033" width="12.3709" height="13.4018"/>
  <object id="108" gid="474" x="84.6038" y="97.7542" width="15.4636" height="15.1199"/>
  <object id="109" gid="477" x="368.939" y="264.5" width="13.8182" height="12.9091"/>
  <object id="110" gid="477" x="217" y="296.167" width="16" height="16"/>
  <object id="112" gid="479" x="348.917" y="235" width="17.25" height="18.625"/>
  <object id="115" gid="478" x="354" y="243.667" width="14.5" height="19.375"/>
  <object id="116" gid="478" x="343.667" y="252.125" width="17.375" height="17.125"/>
  <object id="117" gid="478" x="326.667" y="243.125" width="13.875" height="15.875"/>
  <object id="118" gid="478" x="369.667" y="245.167" width="16" height="16"/>
  <object id="126" gid="466" x="150.167" y="137.333" width="16" height="16"/>
  <object id="130" gid="493" x="357" y="314" width="16" height="48"/>
  <object id="131" gid="491" x="371" y="320.5" width="16" height="32"/>
  <object id="132" gid="484" x="366" y="305.5" width="32" height="48"/>
  <object id="133" gid="465" x="344.25" y="307.25" width="16" height="16"/>
  <object id="134" gid="466" x="378" y="314" width="16" height="16"/>
  <object id="136" gid="482" x="340.125" y="319.75" width="16" height="16"/>
  <object id="137" gid="483" x="327.159" y="305.727" width="15.5682" height="16.8523"/>
  <object id="138" gid="480" x="340" y="299" width="11.5" height="14"/>
  <object id="139" gid="480" x="312" y="313.5" width="16" height="16"/>
  <object id="140" gid="478" x="308.125" y="282" width="16" height="16"/>
  <object id="142" gid="466" x="342.667" y="247.25" width="16" height="16"/>
  <object id="143" gid="465" x="385.015" y="252.712" width="13.25" height="12"/>
  <object id="144" gid="685" x="283.5" y="257.5" width="48" height="48"/>
  <object id="145" gid="492" x="161" y="124" width="16" height="48"/>
  <object id="146" gid="495" x="162.334" y="137" width="16" height="16"/>
  <object id="148" gid="466" x="209.5" y="323" width="16" height="16"/>
  <object id="160" gid="382" x="209" y="276" width="16" height="16"/>
  <object id="164" gid="382" x="320.5" y="287.5" width="16" height="16"/>
 </objectgroup>
 <objectgroup id="17" name="图标"/>
</map>
