<?xml version="1.0" encoding="UTF-8"?>
<map version="1.10" tiledversion="1.12.2" orientation="orthogonal" renderorder="right-down" width="23" height="19" tilewidth="16" tileheight="16" infinite="0" nextlayerid="15" nextobjectid="96">
 <tileset firstgid="1" source="water.tsj"/>
 <tileset firstgid="21" source="soil_island.tsj"/>
 <tileset firstgid="66" source="soil_shadow.tsj"/>
 <tileset firstgid="131" source="Crops.tsj"/>
 <tileset firstgid="163" source="soil_field.tsj"/>
 <tileset firstgid="213" source="soil_field_watering.tsj"/>
 <tileset firstgid="263" source="grass_01_island.tsj"/>
 <tileset firstgid="288" source="soil.tsj"/>
 <tileset firstgid="353" source="grass_decoration.tsj"/>
 <tileset firstgid="386" source="other.tsj"/>
 <tileset firstgid="400" source="fence.tsj"/>
 <tileset firstgid="420" source="house.tsj"/>
 <tileset firstgid="424" source="seed.tsj"/>
 <tileset firstgid="431" source="water_island_ani.tsj"/>
 <tileset firstgid="487" source="box.tsj"/>
 <tileset firstgid="490" source="water_island_ani02.tsj"/>
 <tileset firstgid="504" source="grass_01.tsj"/>
 <tileset firstgid="579" source="stone_01.tsj"/>
 <tileset firstgid="620" source="grass_01_shadow.tsj"/>
 <tileset firstgid="670" source="grass_02.tsj"/>
 <tileset firstgid="745" source="bridge.tsj"/>
 <tileset firstgid="753" source="icon.tsj"/>
 <tileset firstgid="762" source="girl_idle.tsj"/>
 <layer id="1" name="水" width="23" height="19">
  <data encoding="csv">
20,15,15,15,15,15,19,20,15,15,15,15,14,15,15,15,15,15,15,15,15,15,15,
15,19,15,15,15,15,15,15,15,15,15,15,15,15,15,15,15,15,15,15,15,15,15,
15,15,15,20,15,15,15,15,15,15,15,14,15,15,15,19,15,19,15,14,15,15,15,
15,15,431,15,15,15,15,15,15,15,15,15,15,15,15,15,14,15,15,15,432,15,15,
15,431,474,15,15,15,15,15,15,15,15,15,15,19,15,15,15,20,15,15,473,432,15,
14,6,15,15,14,15,15,15,15,19,15,15,19,15,15,15,15,15,15,19,15,8,15,
15,6,15,15,15,15,15,15,15,15,15,15,15,20,15,15,15,15,15,15,15,8,15,
15,6,15,15,15,15,15,15,15,15,15,15,15,15,15,15,15,15,15,15,15,8,15,
20,6,15,15,15,15,15,15,15,15,15,15,15,15,14,14,15,15,15,20,15,8,15,
15,6,15,15,15,15,15,15,15,15,15,15,15,20,15,15,15,15,15,15,15,8,15,
15,6,15,15,15,15,15,15,15,14,20,15,15,15,15,15,15,15,15,15,15,8,15,
15,6,15,15,15,15,15,14,15,15,15,19,15,15,15,15,20,15,15,15,15,8,15,
15,6,15,15,15,15,15,15,15,15,15,15,15,15,15,15,15,15,15,15,15,8,15,
15,6,15,15,19,20,15,19,15,15,15,15,15,15,15,15,15,15,15,15,15,8,15,
15,6,15,19,15,15,15,15,15,14,15,15,15,15,15,15,20,15,15,15,15,8,15,
15,445,460,15,15,15,15,19,15,15,15,15,15,15,14,15,15,15,15,15,15,8,15,
15,15,445,490,491,490,491,490,491,460,15,15,15,15,15,15,15,15,14,15,459,446,15,
19,15,15,15,15,15,15,15,15,445,490,491,490,491,490,491,490,491,490,491,446,15,15,
15,15,15,19,15,15,15,15,15,15,20,15,15,15,15,15,15,19,15,20,15,15,15
</data>
 </layer>
 <layer id="2" name="岛屿" width="23" height="19">
  <data encoding="csv">
0,0,0,0,0,0,0,0,0,0,0,0,0,0,0,0,0,0,0,0,0,0,0,
0,0,0,0,0,0,0,0,0,0,0,0,0,0,0,0,0,0,0,0,0,0,0,
0,0,0,0,0,0,0,0,0,0,0,0,0,0,0,0,0,0,0,0,0,0,0,
0,0,21,22,22,22,22,22,22,22,22,22,22,22,22,22,22,22,22,22,23,0,0,
0,21,34,31,31,31,31,31,31,31,31,31,31,31,31,31,31,31,31,31,33,23,0,
0,30,31,31,31,31,31,31,31,31,31,31,31,31,31,31,31,31,31,31,31,32,0,
0,30,31,31,31,31,31,31,31,31,341,31,31,31,31,31,31,31,31,31,31,32,0,
0,30,31,31,31,391,302,31,31,31,31,31,31,31,31,31,31,31,312,298,31,32,0,
0,30,31,31,31,398,302,302,302,302,302,302,302,340,302,302,302,302,302,302,31,32,0,
0,30,31,31,31,31,31,424,302,302,302,302,302,340,302,302,302,302,302,302,31,32,0,
0,30,31,31,31,31,31,302,302,302,302,302,302,340,298,302,302,302,302,302,31,32,0,
0,30,31,31,31,31,31,302,302,302,302,302,302,302,302,302,302,302,302,302,31,32,0,
0,30,31,31,31,31,31,302,302,302,302,302,302,340,302,302,302,302,302,302,31,32,0,
0,30,31,31,31,31,31,302,302,302,302,302,302,302,302,302,302,302,302,302,31,32,0,
0,30,31,31,31,31,31,31,341,340,31,31,31,300,31,31,31,31,31,31,31,32,0,
0,39,25,31,31,31,31,31,31,31,31,31,31,340,31,31,31,31,31,31,31,32,0,
0,0,39,40,40,40,40,40,40,25,326,340,340,340,31,31,31,31,31,31,24,41,0,
0,0,0,0,0,0,0,0,0,39,40,40,40,40,40,40,40,40,40,40,41,0,0,
0,0,0,0,0,0,0,0,0,0,0,0,0,0,0,0,0,0,0,0,0,0,0
</data>
 </layer>
 <layer id="6" name="土阴影" width="23" height="19">
  <data encoding="csv">
0,0,0,0,0,0,0,0,0,0,0,0,0,0,0,0,0,0,0,0,0,0,0,
0,0,0,0,0,0,0,0,0,0,0,0,0,0,0,0,0,0,0,0,0,0,0,
0,0,0,0,0,0,0,0,0,0,0,0,0,0,0,0,0,0,0,0,0,0,0,
0,0,0,0,0,0,0,0,0,0,0,0,0,0,0,0,0,0,0,0,0,0,0,
0,0,0,0,0,0,0,0,0,0,0,0,0,0,0,0,0,0,0,0,0,0,0,
0,0,0,0,0,0,0,0,0,0,0,0,0,0,0,0,0,0,0,0,0,0,0,
0,0,0,0,0,0,0,79,80,80,84,94,0,79,80,68,108,0,0,0,0,0,0,
0,0,0,0,0,0,0,92,93,93,94,0,0,92,93,94,0,0,0,0,0,0,0,
0,0,0,0,0,0,0,0,0,0,0,0,31,31,0,0,0,0,0,0,0,0,0,
0,0,0,0,0,0,0,0,0,0,0,0,0,0,0,0,0,0,0,0,0,0,0,
0,0,0,0,0,0,0,0,0,0,0,0,0,31,31,0,0,0,0,0,0,0,0,
0,0,0,0,0,0,0,0,0,0,0,0,0,0,0,0,0,0,0,0,0,0,0,
0,0,0,0,0,0,0,0,0,0,0,0,0,0,0,0,0,0,0,0,0,0,0,
0,0,0,0,0,0,0,0,0,0,0,0,0,0,0,0,0,0,0,0,0,0,0,
0,0,0,0,0,0,0,0,0,0,0,0,0,0,0,0,0,0,0,0,0,0,0,
0,0,0,0,0,0,0,0,0,0,0,0,0,0,0,0,0,0,0,0,0,0,0,
0,0,0,0,0,0,0,0,0,0,0,0,0,0,0,0,0,0,0,0,0,0,0,
0,0,0,0,0,0,0,0,0,0,0,0,0,0,0,0,0,0,0,0,0,0,0,
0,0,0,0,0,0,0,0,0,0,0,0,0,0,0,0,0,0,0,0,0,0,0
</data>
 </layer>
 <layer id="7" name="耕地" width="23" height="19">
  <data encoding="csv">
0,0,0,0,0,0,0,0,0,0,0,0,0,0,0,0,0,0,0,0,0,0,0,
0,0,0,0,0,0,0,0,0,0,0,0,0,0,0,0,0,0,0,0,0,0,0,
0,0,0,0,0,0,0,0,0,0,0,0,0,0,0,0,0,0,0,0,0,0,0,
0,0,0,0,0,0,0,0,0,0,0,0,0,0,0,0,0,0,0,0,0,0,0,
0,0,0,0,0,0,0,0,0,0,0,0,0,0,0,0,0,0,0,0,0,0,0,
0,0,0,0,0,0,0,0,0,0,0,0,0,0,0,0,0,0,0,0,0,0,0,
0,0,0,0,0,0,0,0,0,0,0,0,0,0,0,0,0,0,0,0,0,0,0,
0,0,0,0,0,0,0,0,0,0,0,0,0,0,0,0,0,0,0,0,0,0,0,
0,0,0,0,0,0,0,163,164,164,164,164,165,69,163,164,164,164,164,165,0,0,0,
0,0,0,0,0,0,0,173,174,174,174,174,175,82,173,174,174,174,174,175,0,0,0,
0,0,0,0,0,0,0,173,174,174,174,174,175,95,173,174,174,174,174,175,0,0,0,
0,0,0,0,0,0,0,173,174,174,174,174,175,69,173,174,174,174,174,175,0,0,0,
0,0,0,0,0,0,0,173,174,174,174,174,175,82,173,174,174,174,174,175,0,0,0,
0,0,0,0,0,0,0,183,184,184,184,184,185,95,183,184,184,184,184,185,0,0,0,
0,0,0,0,0,0,0,0,0,0,0,0,67,68,0,0,0,0,0,0,0,0,0,
0,0,0,0,0,0,0,0,0,0,0,0,80,81,0,0,0,0,0,0,0,0,0,
0,0,0,0,0,0,0,0,0,0,105,106,93,94,0,0,0,0,0,0,0,0,0,
0,0,0,0,0,0,0,0,0,0,0,0,0,0,0,0,0,0,0,0,0,0,0,
0,0,0,0,0,0,0,0,0,0,0,0,0,0,0,0,0,0,0,0,0,0,0
</data>
 </layer>
 <layer id="4" name="浇水" width="23" height="19">
  <data encoding="csv">
0,0,0,0,0,0,0,0,0,0,0,0,0,0,0,0,0,0,0,0,0,0,0,
0,0,0,0,0,0,0,0,0,0,0,0,0,0,0,0,0,0,0,0,0,0,0,
0,0,0,0,0,0,0,0,0,0,0,0,0,0,0,0,0,0,0,0,0,0,0,
0,0,0,0,0,0,0,0,0,0,0,0,0,0,0,0,0,0,0,0,0,0,0,
0,0,0,0,0,0,0,0,0,0,0,0,0,0,0,0,0,0,0,0,0,0,0,
0,0,0,0,0,0,0,0,0,0,0,0,0,0,0,0,0,0,0,0,0,0,0,
0,0,0,0,0,0,0,0,0,0,0,0,0,0,0,0,0,0,0,0,0,0,0,
0,0,0,0,0,0,0,0,0,0,0,0,0,0,0,0,0,0,0,0,0,0,0,
0,0,0,0,0,0,0,0,0,0,0,0,0,0,0,0,0,0,0,0,0,0,0,
0,0,0,0,0,0,0,0,213,214,214,215,0,0,0,216,243,244,245,0,0,0,0,
0,0,0,0,0,0,0,0,223,224,224,225,0,0,0,226,243,244,245,0,0,0,0,
0,0,0,0,0,0,0,0,223,224,224,225,0,0,0,236,243,244,245,0,0,0,0,
0,0,0,0,0,0,0,0,233,234,234,235,0,0,0,246,243,244,245,0,0,0,0,
0,0,0,0,0,0,0,0,0,0,0,0,0,0,0,0,0,0,0,0,0,0,0,
0,0,0,0,0,0,0,0,0,0,0,0,0,0,0,0,0,0,0,0,0,0,0,
0,0,0,0,0,0,0,0,0,0,0,0,0,0,0,0,0,0,0,0,0,0,0,
0,0,0,0,0,0,0,0,0,0,0,0,0,0,0,0,0,0,0,0,0,0,0,
0,0,0,0,0,0,0,0,0,0,0,0,0,0,0,0,0,0,0,0,0,0,0,
0,0,0,0,0,0,0,0,0,0,0,0,0,0,0,0,0,0,0,0,0,0,0
</data>
 </layer>
 <layer id="8" name="装饰" width="23" height="19">
  <data encoding="csv">
0,0,0,0,0,0,0,0,0,0,0,0,0,0,0,0,0,0,0,0,0,0,0,
0,0,0,0,0,0,0,0,0,0,0,0,0,0,0,0,0,0,0,0,0,0,0,
0,0,0,0,0,0,0,0,0,0,0,0,0,0,0,0,0,0,0,0,0,0,0,
0,0,0,0,0,0,0,0,0,0,0,0,0,0,0,0,0,0,0,0,0,0,0,
0,0,0,0,0,0,0,0,0,0,0,0,0,0,0,0,0,0,0,0,0,0,0,
0,0,0,0,0,0,0,0,0,0,0,0,0,0,0,0,0,0,0,0,0,0,0,
0,0,0,0,0,0,0,0,76,104,0,0,0,0,91,0,0,0,0,0,0,0,0,
0,0,0,0,0,0,0,0,0,0,0,0,0,0,0,0,0,0,0,0,0,0,0,
0,0,0,0,0,0,0,0,0,0,0,0,0,0,0,0,0,0,0,0,0,0,0,
0,0,0,0,0,0,0,0,0,0,0,0,0,0,0,0,0,0,0,0,0,0,0,
0,0,0,0,0,0,0,0,0,0,0,0,0,0,0,0,0,0,0,0,0,0,0,
0,0,0,0,0,0,0,0,0,0,0,0,0,0,0,0,0,0,0,0,0,0,0,
0,0,0,0,0,0,0,0,0,0,0,0,0,0,0,0,0,0,0,0,0,0,0,
0,0,0,0,0,0,0,0,0,0,0,0,0,0,0,0,0,0,0,0,0,0,0,
0,0,0,0,0,0,0,0,0,0,0,0,0,0,0,0,0,0,0,0,0,0,0,
0,0,0,0,0,0,0,0,0,0,0,0,0,0,0,0,0,0,0,0,0,0,0,
0,0,0,0,0,0,0,0,0,0,0,0,0,0,0,0,0,0,0,0,0,0,0,
0,0,0,0,0,0,0,0,0,0,0,0,0,0,0,0,0,0,0,0,0,0,0,
0,0,0,0,0,0,0,0,0,0,0,0,0,0,0,0,0,0,0,0,0,0,0
</data>
 </layer>
 <layer id="5" name="草" width="23" height="19">
  <data encoding="csv">
0,0,0,0,0,0,0,0,0,0,0,0,0,0,0,0,0,0,0,0,0,0,0,
0,0,0,0,0,0,0,0,0,0,0,0,0,0,0,0,0,0,0,0,0,0,0,
0,0,0,0,0,0,0,0,0,0,0,0,0,0,0,0,0,0,0,0,0,0,0,
0,0,263,264,264,264,264,264,264,264,264,264,264,264,264,264,264,264,264,264,265,0,0,
0,263,272,575,520,515,532,520,520,520,520,520,562,520,520,520,520,520,520,520,271,265,0,
0,268,520,561,517,529,532,520,520,547,520,520,520,520,520,520,520,520,520,520,520,270,0,
0,268,520,520,520,520,520,520,520,520,520,520,520,547,520,520,520,520,559,520,520,270,0,
0,268,520,520,520,520,266,274,274,274,274,274,274,274,274,274,274,274,274,274,267,270,0,
0,268,562,653,520,520,270,0,0,0,0,0,0,0,0,0,0,0,0,0,268,270,0,
0,268,620,621,622,520,270,0,0,0,0,0,0,0,0,0,0,0,0,0,268,270,0,
0,268,630,631,632,653,270,0,0,0,0,0,0,0,0,0,0,0,0,0,268,270,0,
0,268,640,641,642,520,270,0,0,0,0,0,0,0,0,0,0,0,0,0,268,270,0,
0,268,653,520,520,520,270,0,0,0,0,0,0,0,0,0,0,0,0,0,268,270,0,
0,268,559,520,520,520,270,0,0,0,0,0,0,0,0,0,0,0,0,0,268,270,0,
0,268,520,520,520,520,271,264,264,264,264,264,265,0,263,264,264,264,264,264,272,270,0,
0,273,267,520,520,546,520,520,520,520,520,520,270,0,268,520,653,520,520,546,520,270,0,
0,0,273,274,274,274,274,274,274,274,274,274,275,0,268,562,520,520,520,520,266,275,0,
0,0,0,0,0,0,0,0,0,0,0,0,0,0,273,274,274,274,274,274,275,0,0,
0,0,0,0,0,0,0,0,0,0,0,0,0,0,0,0,0,0,0,0,0,0,0
</data>
 </layer>
 <layer id="14" name="草2" width="23" height="19" visible="0">
  <data encoding="csv">
0,0,0,0,0,0,0,0,0,0,0,0,0,0,0,0,0,0,0,0,0,0,0,
0,0,0,0,0,0,0,0,0,0,0,0,0,0,0,0,0,0,0,0,0,0,0,
0,0,0,0,0,0,0,0,0,0,0,0,0,0,0,0,0,0,0,0,0,0,0,
0,0,0,0,0,0,0,0,0,0,0,0,0,0,0,0,0,0,0,0,0,0,0,
0,0,0,0,0,0,0,0,0,0,0,670,671,672,0,0,0,0,0,0,0,0,0,
0,0,0,0,0,0,0,0,0,0,670,706,686,687,0,0,0,0,0,0,0,0,0,
0,0,0,0,0,0,0,0,0,0,700,701,701,702,0,0,0,0,0,0,0,0,0,
0,0,0,0,0,0,0,0,0,0,0,0,0,0,0,0,0,0,0,0,0,0,0,
0,0,0,0,0,0,0,0,0,0,0,0,0,0,0,0,0,0,0,0,0,0,0,
0,0,0,0,0,0,0,0,0,0,0,0,0,0,0,0,0,0,0,0,0,0,0,
0,0,0,0,0,0,0,0,0,0,0,0,0,0,0,0,0,0,0,0,0,0,0,
0,0,0,0,0,0,0,0,0,0,0,0,0,0,0,0,0,0,0,0,0,0,0,
0,0,0,0,0,0,0,0,0,0,0,0,0,0,0,0,0,0,0,0,0,0,0,
0,0,0,0,0,0,0,0,0,0,0,0,0,0,0,0,0,0,0,0,0,0,0,
0,0,0,0,0,0,0,0,0,0,0,0,0,0,0,0,0,0,0,0,0,0,0,
0,0,0,0,0,0,0,0,0,0,0,0,0,0,0,0,0,0,0,0,0,0,0,
0,0,0,0,0,0,0,0,0,0,0,0,0,0,0,0,0,0,0,0,0,0,0,
0,0,0,0,0,0,0,0,0,0,0,0,0,0,0,0,0,0,0,0,0,0,0,
0,0,0,0,0,0,0,0,0,0,0,0,0,0,0,0,0,0,0,0,0,0,0
</data>
 </layer>
 <layer id="3" name="植物" width="23" height="19">
  <data encoding="csv">
0,0,0,0,0,0,0,0,0,0,0,0,0,0,0,0,0,0,0,0,0,0,0,
0,0,0,0,0,0,0,0,0,0,0,0,0,0,0,0,0,0,0,0,0,0,0,
0,0,0,0,0,0,0,0,0,0,0,0,0,0,0,0,0,0,0,0,0,0,0,
0,0,0,0,0,0,0,0,0,0,0,0,0,0,0,0,0,0,0,0,0,0,0,
0,0,0,0,0,0,0,0,0,0,0,0,0,0,0,0,0,0,0,0,0,0,0,
0,0,0,0,0,0,0,0,0,0,0,0,0,0,0,0,0,0,0,0,0,0,0,
0,0,0,0,0,0,0,0,0,0,0,0,0,0,0,0,0,0,0,0,0,0,0,
0,0,0,0,0,0,0,0,0,0,0,0,0,0,0,0,0,0,0,0,0,0,0,
0,0,0,0,0,0,0,0,0,0,0,0,0,0,0,0,0,0,0,0,0,0,0,
0,0,0,0,0,0,0,0,131,132,133,134,0,0,0,161,162,159,160,0,0,0,0,
0,0,0,0,0,0,0,0,143,144,145,146,0,0,0,155,156,157,158,0,0,0,0,
0,0,0,0,0,0,0,0,151,152,153,154,0,0,0,139,140,141,142,0,0,0,0,
0,0,0,0,0,0,0,0,147,148,149,150,0,0,0,135,136,137,138,0,0,0,0,
0,0,0,0,0,0,0,0,0,0,0,0,0,0,0,0,0,0,0,0,0,0,0,
0,0,0,0,0,0,0,0,0,0,0,0,0,0,0,0,0,0,0,0,0,0,0,
0,0,0,0,0,0,0,0,0,0,0,0,0,0,0,0,0,0,0,0,0,0,0,
0,0,0,0,0,0,0,0,0,0,0,0,0,0,0,0,0,0,0,0,0,0,0,
0,0,0,0,0,0,0,0,0,0,0,0,0,0,0,0,0,0,0,0,0,0,0,
0,0,0,0,0,0,0,0,0,0,0,0,0,0,0,0,0,0,0,0,0,0,0
</data>
 </layer>
 <layer id="9" name="装饰" width="23" height="19">
  <data encoding="csv">
0,0,0,0,0,0,0,0,0,0,0,0,0,0,0,0,0,0,0,0,0,0,0,
0,0,0,0,0,0,0,0,0,0,0,0,0,0,0,0,0,0,0,0,0,0,0,
0,0,0,0,0,0,0,0,0,0,0,0,0,0,0,0,0,0,0,0,0,0,0,
0,0,0,0,0,0,0,389,0,0,0,0,366,0,0,0,0,0,0,0,0,0,0,
0,0,0,0,0,0,395,396,361,0,0,0,0,0,0,0,366,0,0,0,0,0,0,
0,0,394,0,0,0,0,0,0,0,0,0,0,0,369,355,362,357,0,0,0,0,0,
0,0,0,0,0,0,0,0,0,0,0,0,0,0,0,0,356,0,0,0,363,0,0,
0,0,0,0,0,391,0,0,400,401,402,0,373,0,0,400,401,402,0,0,0,0,0,
0,0,0,0,514,0,0,0,392,0,0,0,0,0,0,392,0,0,0,0,356,0,0,
0,0,0,0,0,0,0,0,0,0,0,0,0,0,0,0,0,0,0,425,0,0,0,
0,0,0,0,0,0,0,427,0,0,0,0,0,0,0,0,0,0,0,430,353,0,0,
0,0,0,0,0,547,0,429,0,0,0,0,0,0,0,0,0,0,0,426,0,379,0,
0,0,514,0,562,0,0,428,0,0,0,0,0,0,0,0,0,0,0,424,374,0,0,
0,0,0,0,0,0,0,0,0,405,406,401,407,0,0,0,405,406,401,402,0,355,0,
0,0,0,0,0,0,0,487,488,0,0,489,0,0,0,0,0,0,0,0,0,0,0,
0,0,0,0,0,0,529,0,0,0,0,0,0,0,0,0,0,577,0,385,0,0,0,
0,0,0,0,0,0,745,746,0,0,0,0,0,0,0,0,0,0,0,0,0,0,0,
0,0,0,0,0,0,749,750,0,0,0,0,0,0,0,0,0,0,0,0,0,0,0,
0,0,0,0,0,0,0,0,0,0,0,0,0,0,0,0,0,0,0,0,0,0,0
</data>
 </layer>
 <layer id="10" name="房子" width="23" height="19">
  <data encoding="csv">
0,0,0,0,0,0,0,0,0,0,0,0,0,0,0,0,0,0,0,0,0,0,0,
0,0,0,0,0,0,0,0,0,0,0,0,0,0,0,0,0,0,0,0,0,0,0,
0,0,0,0,0,0,0,0,0,0,0,0,0,0,0,0,0,0,0,0,0,0,0,
0,0,0,0,0,0,0,0,0,0,0,0,0,0,0,0,0,0,0,0,0,0,0,
0,0,0,0,0,0,0,0,395,0,0,0,0,0,0,0,0,0,0,0,0,0,0,
0,0,423,0,0,0,0,0,396,395,0,0,0,0,0,0,0,0,0,0,0,0,0,
0,0,0,421,0,0,0,0,0,0,0,0,0,0,0,0,0,0,0,0,0,0,0,
0,0,0,0,0,0,0,0,0,0,0,0,0,0,0,0,0,0,0,0,0,0,0,
0,0,0,0,0,0,0,0,0,0,0,0,0,0,0,0,0,0,0,0,0,0,0,
0,0,0,0,0,0,0,0,0,0,0,0,0,0,0,0,0,0,0,0,0,0,0,
0,0,0,0,0,0,0,0,0,0,0,0,0,0,0,0,0,0,0,0,0,0,0,
0,0,0,0,0,0,0,0,0,0,0,0,0,0,0,0,0,0,0,0,0,0,0,
0,0,0,0,0,0,0,0,0,0,0,0,0,0,0,0,0,0,0,0,0,0,0,
0,0,0,0,0,0,0,0,0,0,0,0,0,0,0,0,0,0,0,0,0,0,0,
0,0,0,0,0,0,0,0,0,0,0,0,0,0,0,0,0,0,0,0,0,0,0,
0,0,0,0,0,0,0,0,0,0,0,0,0,0,0,0,0,0,0,0,0,0,0,
0,0,0,0,0,0,0,0,0,0,0,0,0,0,0,0,0,0,0,0,0,0,0,
0,0,0,0,0,0,0,0,0,0,0,0,0,0,0,0,0,0,0,0,0,0,0,
0,0,0,0,0,0,0,0,0,0,0,0,0,0,0,0,0,0,0,0,0,0,0
</data>
 </layer>
 <objectgroup id="13" name="植物">
  <object id="3" gid="582" x="144" y="243.5" width="32" height="32"/>
  <object id="4" gid="582" x="228.5" y="241" width="32" height="32"/>
  <object id="5" gid="599" x="286" y="97" width="32" height="48"/>
  <object id="8" gid="603" x="306.5" y="74.5" width="16" height="48"/>
  <object id="9" gid="600" x="328" y="90" width="16" height="48"/>
  <object id="10" gid="602" x="278.5" y="81.5" width="16" height="48"/>
  <object id="11" gid="590" x="260" y="239" width="16" height="16"/>
  <object id="13" gid="589" x="91.5" y="238.5" width="16" height="16"/>
  <object id="14" gid="612" x="306.5" y="91" width="16" height="16"/>
  <object id="15" gid="612" x="259.909" y="255.409" width="16" height="16"/>
  <object id="16" gid="581" x="278.045" y="248.273" width="16" height="16"/>
  <object id="17" gid="592" x="32.2614" y="173.545" width="16" height="16"/>
  <object id="18" gid="592" x="48.1364" y="162.727" width="16" height="16"/>
  <object id="19" gid="592" x="63.6591" y="172.409" width="16" height="16"/>
  <object id="20" gid="592" x="37.8864" y="187.102" width="16" height="16"/>
  <object id="21" gid="592" x="58.1364" y="187.352" width="16" height="16"/>
  <object id="22" gid="591" x="47.6364" y="175.227" width="16" height="16"/>
  <object id="23" gid="597" x="33" y="157" width="16" height="16"/>
  <object id="24" gid="597" x="63.5" y="157" width="16" height="16"/>
  <object id="25" gid="598" x="32.5" y="190.5" width="16" height="16"/>
  <object id="26" gid="598" x="67" y="191.5" width="16" height="16"/>
  <object id="27" gid="595" x="79.5" y="172.5" width="16" height="16"/>
  <object id="28" gid="595" x="18" y="172.5" width="16" height="16"/>
  <object id="29" gid="596" x="50.5" y="200.5" width="16" height="16"/>
  <object id="30" gid="596" x="50" y="143.5" width="16" height="16"/>
  <object id="34" gid="581" x="21" y="187.5" width="16" height="16"/>
  <object id="39" gid="612" x="74" y="203.5" width="16" height="16"/>
  <object id="41" gid="604" x="166.25" y="102.875" width="32" height="48"/>
  <object id="43" gid="605" x="197.5" y="82.5" width="16" height="48"/>
  <object id="44" gid="602" x="201.333" y="104.667" width="16" height="48"/>
  <object id="51" gid="588" x="231.958" y="77.6667" width="16" height="16"/>
  <object id="52" gid="581" x="184" y="108.667" width="16" height="16"/>
  <object id="55" gid="588" x="23.3333" y="132.667" width="16" height="16"/>
  <object id="56" gid="584" x="20" y="210" width="16" height="16"/>
  <object id="58" gid="586" x="226" y="108" width="16" height="16"/>
  <object id="59" gid="593" x="290.5" y="262.5" width="16" height="16"/>
  <object id="60" gid="593" x="311.182" y="253.273" width="16" height="16"/>
  <object id="61" gid="594" x="304.75" y="271.25" width="16" height="16"/>
  <object id="62" gid="594" x="323.545" y="261.045" width="16" height="16"/>
  <object id="64" gid="581" x="298" y="268" width="16" height="16"/>
  <object id="67" gid="612" x="312.5" y="263.25" width="16" height="16"/>
  <object id="71" gid="614" x="40" y="256.5" width="32" height="32"/>
  <object id="72" gid="615" x="27.75" y="242.75" width="32" height="32"/>
  <object id="74" gid="615" x="265" y="274.5" width="32" height="32"/>
  <object id="80" gid="612" x="68.5" y="259.5" width="16" height="16"/>
  <object id="82" gid="581" x="62.5" y="231" width="16" height="16"/>
  <object id="83" gid="582" x="31.5" y="111" width="32" height="32"/>
  <object id="84" gid="582" x="110.5" y="111" width="32" height="32"/>
  <object id="85" gid="753" x="195.667" y="153.333" width="16" height="16"/>
  <object id="86" gid="754" x="177.333" y="137.333" width="16" height="16"/>
  <object id="87" gid="758" x="195.917" y="170.5" width="16" height="16"/>
  <object id="88" gid="760" x="197.333" y="189.75" width="16" height="32"/>
  <object id="89" gid="759" x="196.583" y="206.667" width="16" height="16"/>
  <object id="90" gid="756" x="226" y="153" width="16" height="16"/>
  <object id="91" gid="761" x="226.417" y="173.5" width="16" height="32"/>
  <object id="92" gid="757" x="225.333" y="193.083" width="16" height="32"/>
  <object id="94" gid="755" x="226" y="210.182" width="32" height="16"/>
 </objectgroup>
 <objectgroup id="12" name="角色">
  <object id="95" gid="770" x="68.6667" y="171.333" width="48" height="48"/>
 </objectgroup>
</map>
