<?xml version="1.0" encoding="UTF-8"?>
<map version="1.10" tiledversion="1.12.2" orientation="orthogonal" renderorder="right-down" width="13" height="13" tilewidth="16" tileheight="16" infinite="0" nextlayerid="11" nextobjectid="1">
 <tileset firstgid="1" source="soil_island.tsj"/>
 <tileset firstgid="46" source="grass_01.tsj"/>
 <tileset firstgid="121" source="girl_idle.tsj"/>
 <tileset firstgid="153" source="girl_walk.tsj"/>
 <tileset firstgid="185" source="girl_run.tsj"/>
 <tileset firstgid="209" source="fence.tsj"/>
 <tileset firstgid="229" source="soil.tsj"/>
 <tileset firstgid="294" source="soil_shadow.tsj"/>
 <tileset firstgid="359" source="soil_texture_01.tsj"/>
 <tileset firstgid="374" source="grass_02_island.tsj"/>
 <tileset firstgid="399" source="grass_01_island.tsj"/>
 <tileset firstgid="424" source="grass_03_island.tsj"/>
 <tileset firstgid="449" source="grass_decoration.tsj"/>
 <tileset firstgid="482" source="stone_01.tsj"/>
 <layer id="1" name="土" width="13" height="13">
  <data encoding="csv">
243,243,243,243,243,243,243,243,243,243,243,243,243,
243,243,243,243,243,243,243,243,243,243,243,243,243,
243,243,243,243,243,243,243,254,243,243,243,243,243,
243,243,243,359,360,243,243,243,243,243,243,243,243,
243,243,243,364,365,11,243,243,243,243,243,243,243,
243,239,369,370,371,11,243,243,240,243,243,243,243,
243,243,243,243,243,243,336,243,243,243,243,243,243,
243,243,243,243,252,243,243,243,243,243,267,359,360,
243,243,243,243,243,243,243,239,243,243,243,364,365,
243,243,243,243,243,243,243,243,243,243,243,369,370,
243,243,243,243,243,239,243,253,243,243,243,243,243,
243,243,243,243,243,243,243,243,243,243,243,243,243,
243,243,243,243,243,243,243,243,243,243,243,243,243
</data>
 </layer>
 <layer id="2" name="草" width="13" height="13">
  <data encoding="csv">
62,62,62,62,63,0,0,0,61,62,62,62,62,
62,62,62,62,63,0,0,0,61,62,62,62,62,
62,62,62,62,63,0,0,0,61,62,62,62,62,
62,62,62,62,63,0,0,0,61,62,62,62,62,
77,77,77,77,78,0,0,0,76,77,77,77,77,
0,0,0,0,0,0,0,0,0,0,0,0,0,
0,0,0,0,0,0,0,0,0,0,0,0,0,
0,0,0,0,0,0,0,0,0,0,0,0,0,
47,47,47,47,48,0,0,0,46,47,47,47,47,
62,62,62,62,63,0,0,0,61,62,62,62,62,
62,62,62,62,63,0,0,0,61,62,62,62,62,
62,62,62,62,63,0,0,0,61,62,62,62,62,
62,62,62,62,63,0,0,0,61,62,62,62,62
</data>
 </layer>
 <layer id="6" name="图块层 5" width="13" height="13">
  <data encoding="csv">
243,243,243,244,0,0,0,0,0,242,243,243,243,
243,243,243,244,0,0,0,0,0,242,243,243,243,
243,243,243,244,0,0,0,0,0,242,243,243,243,
256,256,256,257,0,0,0,0,0,255,256,256,256,
0,0,0,0,0,0,0,0,0,0,0,0,0,
0,0,0,0,0,0,0,0,0,0,0,0,0,
0,0,0,0,0,0,0,0,0,0,0,0,0,
0,0,0,0,0,0,0,0,0,0,0,0,0,
0,0,0,0,0,0,0,0,0,0,0,0,0,
230,230,230,231,0,0,0,0,0,229,230,230,230,
243,243,243,244,0,0,0,0,0,242,243,243,243,
243,243,243,244,0,0,0,0,0,242,243,243,243,
243,243,243,244,0,0,0,0,0,242,243,243,243
</data>
 </layer>
 <layer id="7" name="图块层 6" width="13" height="13">
  <data encoding="csv">
430,430,430,431,0,0,0,0,0,429,430,430,430,
430,430,430,431,0,0,0,0,0,429,430,430,430,
430,430,430,431,0,0,0,0,0,429,430,430,430,
435,435,435,436,0,0,0,0,0,434,435,435,435,
0,0,0,0,0,0,0,0,0,0,0,0,0,
0,0,0,0,0,0,0,0,0,0,0,0,0,
0,0,0,0,0,0,0,0,0,0,0,0,0,
0,0,0,0,0,0,0,0,0,0,0,0,0,
0,0,0,0,0,0,0,0,0,0,0,0,0,
425,425,425,426,0,0,0,0,0,424,425,425,425,
430,430,430,431,0,0,0,0,0,429,430,430,430,
430,430,430,431,0,0,0,0,0,429,430,430,430,
430,430,430,431,0,0,0,0,0,429,430,430,430
</data>
 </layer>
 <layer id="8" name="装饰" width="13" height="13">
  <data encoding="csv">
0,0,0,0,0,0,0,0,0,0,473,0,0,
0,452,0,0,0,0,0,0,0,0,0,0,478,
458,0,0,0,0,0,0,0,0,0,0,455,0,
0,0,0,0,0,0,0,0,0,0,0,0,0,
0,0,0,0,0,0,0,0,0,0,0,0,0,
0,0,0,0,0,0,0,0,0,0,0,0,0,
0,0,0,0,0,0,0,0,0,0,0,0,0,
0,0,0,0,0,0,0,0,0,0,0,0,0,
0,0,0,0,0,0,0,0,0,0,0,0,0,
0,0,0,0,0,0,0,0,0,0,0,0,0,
0,0,481,0,0,0,0,0,0,0,460,0,0,
470,467,0,0,0,0,0,0,0,0,480,0,458,
0,0,0,0,0,0,0,0,0,0,467,0,0
</data>
 </layer>
 <layer id="5" name="道具" width="13" height="13">
  <data encoding="csv">
0,0,0,212,0,0,0,0,0,212,0,0,0,
0,0,0,217,0,0,0,0,0,217,0,0,0,
0,0,0,217,0,0,0,0,0,217,0,0,0,
227,209,210,225,0,0,0,0,0,224,210,211,216,
0,0,0,0,0,0,0,0,0,0,0,0,0,
0,0,0,0,0,0,0,0,0,0,0,0,0,
0,0,0,0,0,0,0,0,0,0,0,0,0,
0,0,0,0,0,0,0,0,0,0,0,0,0,
0,0,0,0,0,0,0,0,0,0,0,0,0,
214,209,210,220,0,0,0,0,0,219,210,211,216,
0,0,0,217,0,0,0,0,0,217,0,0,0,
0,0,0,217,0,0,0,0,0,217,0,0,0,
0,0,0,222,0,0,0,0,0,222,0,0,0
</data>
 </layer>
 <layer id="4" name="角色" width="13" height="13">
  <data encoding="csv">
0,0,0,0,0,0,0,0,0,0,0,0,0,
0,0,0,0,0,0,0,0,0,0,0,0,0,
0,0,0,0,0,185,0,0,0,0,0,0,0,
0,0,0,0,0,0,0,0,0,0,0,0,0,
0,0,0,0,0,153,0,0,0,0,0,0,0,
0,0,0,0,0,0,0,0,0,0,0,0,0,
0,0,0,0,0,121,0,0,0,0,0,0,0,
197,0,169,0,137,0,145,0,177,0,203,0,0,
0,0,0,0,0,129,0,0,0,0,0,0,0,
0,0,0,0,0,0,0,0,0,0,0,0,0,
0,0,0,0,0,161,0,0,0,0,0,0,0,
0,0,0,0,0,0,0,0,0,0,0,0,0,
0,0,0,0,0,191,0,0,0,0,0,0,0
</data>
 </layer>
 <layer id="10" name="图块层 8" width="13" height="13">
  <data encoding="csv">
0,0,0,0,0,0,0,0,0,0,0,0,0,
0,0,0,0,0,0,0,0,0,0,0,0,0,
0,0,0,0,0,0,0,0,0,0,0,0,0,
0,0,0,0,0,0,0,0,0,0,0,0,0,
0,0,0,485,0,0,0,0,485,0,0,0,0,
0,0,0,0,0,0,0,0,0,0,0,0,0,
0,0,0,0,0,0,0,0,0,0,0,0,0,
0,0,0,0,0,0,0,0,0,0,0,0,0,
0,0,0,485,0,0,0,0,485,0,0,0,0,
0,0,0,0,0,0,0,0,0,0,0,0,0,
0,0,0,0,0,0,0,0,0,0,0,0,0,
0,0,0,0,0,0,0,0,0,0,0,0,0,
0,0,0,0,0,0,0,0,0,0,0,0,0
</data>
 </layer>
</map>
