<?xml version="1.0" encoding="UTF-8"?>
<map version="1.10" tiledversion="1.12.2" orientation="orthogonal" renderorder="right-down" width="30" height="20" tilewidth="16" tileheight="16" infinite="0" nextlayerid="4" nextobjectid="1">
 <tileset firstgid="1" source="water.tsj"/>
 <tileset firstgid="21" source="soil_island.tsj"/>
 <tileset firstgid="66" source="soil_shadow.tsj"/>
 <tileset firstgid="131" source="Crops.tsj"/>
 <tileset firstgid="163" source="soil_field.tsj"/>
 <layer id="1" name="水" width="30" height="20">
  <data encoding="csv">
15,15,15,15,15,20,15,15,15,15,15,19,20,15,15,15,15,14,15,15,15,15,15,15,15,15,15,15,15,15,
15,15,15,15,15,15,19,15,15,15,15,15,15,15,15,15,15,15,15,15,15,15,15,15,15,15,15,15,15,15,
15,15,15,15,15,15,15,15,20,15,15,15,15,15,15,15,14,15,15,15,19,15,19,15,14,15,15,15,15,15,
15,15,15,15,15,15,15,14,15,15,15,15,15,15,15,15,15,15,15,15,15,14,15,15,15,15,15,15,15,15,
15,15,15,15,15,15,15,15,15,15,15,15,15,15,15,15,15,15,19,15,15,15,20,15,15,15,15,15,15,15,
15,15,15,15,15,14,15,15,15,14,15,15,15,15,19,15,15,19,15,15,15,15,15,15,19,15,15,15,15,15,
15,15,15,15,15,15,15,15,15,15,15,15,15,15,15,15,15,15,20,15,15,15,15,15,15,15,15,15,15,15,
15,15,15,15,15,15,15,15,15,15,15,15,15,15,15,15,15,15,15,15,15,15,15,15,15,15,15,15,15,15,
15,15,15,15,15,20,15,15,15,15,15,15,15,15,15,15,15,15,15,14,14,15,15,15,20,15,15,15,15,15,
15,15,15,15,15,15,15,15,15,15,15,15,15,15,15,15,15,15,20,15,15,15,15,15,15,15,15,15,15,15,
15,15,15,15,15,15,15,15,15,15,15,15,15,15,14,20,15,15,15,15,15,15,15,15,15,15,15,15,15,15,
15,15,15,15,15,15,15,15,15,15,15,15,14,15,15,15,19,15,15,15,15,20,15,15,15,15,15,15,15,15,
15,15,15,15,15,15,15,15,15,15,15,15,15,15,15,15,15,15,15,15,15,15,15,15,15,15,15,15,15,15,
15,15,15,15,15,15,15,15,15,19,20,15,19,15,15,15,15,15,15,15,15,15,15,15,15,15,15,15,15,15,
15,15,15,15,15,15,15,15,19,15,15,15,15,15,14,15,15,15,15,15,15,20,15,15,15,15,15,15,15,15,
15,15,15,15,15,15,19,15,15,15,15,15,19,15,15,15,15,15,15,14,15,15,15,15,15,15,15,15,15,15,
15,15,15,15,15,15,15,20,15,15,15,15,15,15,15,15,15,15,15,15,15,15,15,14,15,15,15,15,15,15,
15,15,15,15,15,19,15,15,15,15,15,15,15,15,14,15,15,19,15,15,15,15,15,15,15,15,15,15,15,15,
15,15,15,15,15,15,15,15,19,15,15,15,15,15,15,20,15,15,15,15,15,15,19,15,20,15,15,15,15,15,
15,15,15,15,15,15,14,15,19,15,15,15,20,15,15,15,15,15,15,15,15,15,15,15,15,15,15,15,15,15
</data>
 </layer>
 <layer id="2" name="岛屿" width="30" height="20">
  <data encoding="csv">
0,0,0,0,0,0,0,0,0,0,0,0,0,0,0,0,0,0,0,0,0,0,0,0,0,0,0,0,0,0,
0,0,0,0,0,0,0,0,0,0,0,0,0,0,0,0,0,0,0,0,0,0,0,0,0,0,0,0,0,0,
0,0,0,0,0,0,0,21,22,22,22,22,22,22,22,22,22,22,22,22,22,22,22,22,22,23,0,0,0,0,
0,0,0,0,0,0,21,34,31,31,31,31,31,31,31,31,31,31,31,31,31,31,31,31,31,33,23,0,0,0,
0,0,0,0,0,0,30,31,31,31,31,31,31,31,31,31,31,31,31,31,31,31,31,31,31,31,32,0,0,0,
0,0,0,0,0,0,30,31,31,31,31,31,31,31,31,31,31,31,31,31,31,31,31,31,31,31,32,0,0,0,
0,0,0,0,0,0,30,31,31,31,31,31,31,31,31,31,31,31,31,31,31,31,31,31,31,31,32,0,0,0,
0,0,0,0,0,0,30,31,31,31,31,31,31,31,31,31,31,31,31,31,31,31,31,31,31,31,32,0,0,0,
0,0,0,0,0,0,30,31,31,31,31,31,31,31,31,31,31,31,31,163,164,164,164,164,165,31,32,0,0,0,
0,0,0,0,0,0,30,31,31,31,31,31,31,31,163,164,164,165,31,31,163,164,164,165,175,31,32,0,0,0,
0,0,0,0,0,0,30,31,31,31,31,31,31,31,173,174,174,175,31,31,173,174,174,175,175,31,32,0,0,0,
0,0,0,0,0,0,30,31,31,31,31,31,31,31,173,174,174,175,31,31,173,174,174,175,175,31,32,0,0,0,
0,0,0,0,0,0,30,31,31,31,31,31,31,31,183,184,185,185,31,31,183,184,184,185,185,31,32,0,0,0,
0,0,0,0,0,0,30,31,31,31,31,31,31,31,31,31,31,31,31,31,31,31,31,31,31,31,32,0,0,0,
0,0,0,0,0,0,30,31,31,31,31,31,31,31,31,31,31,31,31,31,31,31,31,31,31,31,32,0,0,0,
0,0,0,0,0,0,39,25,31,31,31,31,31,31,31,31,31,31,31,31,31,31,31,31,31,31,32,0,0,0,
0,0,0,0,0,0,0,39,40,40,40,40,40,40,25,31,31,31,31,31,31,31,31,31,31,24,41,0,0,0,
0,0,0,0,0,0,0,0,0,0,0,0,0,0,39,40,40,40,40,40,40,40,40,40,40,41,0,0,0,0,
0,0,0,0,0,0,0,0,0,0,0,0,0,0,0,0,0,0,0,0,0,0,0,0,0,0,0,0,0,0,
0,0,0,0,0,0,0,0,0,0,0,0,0,0,0,0,0,0,0,0,0,0,0,0,0,0,0,0,0,0
</data>
 </layer>
 <layer id="3" name="植物" width="30" height="20">
  <data encoding="csv">
0,0,0,0,0,0,0,0,0,0,0,0,0,0,0,0,0,0,0,0,0,0,0,0,0,0,0,0,0,0,
0,0,0,0,0,0,0,0,0,0,0,0,0,0,0,0,0,0,0,0,0,0,0,0,0,0,0,0,0,0,
0,0,0,0,0,0,0,0,0,0,0,0,0,0,0,0,0,0,0,0,0,0,0,0,0,0,0,0,0,0,
0,0,0,0,0,0,0,0,0,0,0,0,0,0,0,0,0,0,0,0,0,0,0,0,0,0,0,0,0,0,
0,0,0,0,0,0,0,0,0,0,0,0,0,0,0,0,0,0,0,0,0,0,0,0,0,0,0,0,0,0,
0,0,0,0,0,0,0,0,0,0,0,0,0,0,0,0,0,0,0,0,0,0,0,0,0,0,0,0,0,0,
0,0,0,0,0,0,0,0,0,0,0,0,0,0,0,0,0,0,0,0,0,0,0,0,0,0,0,0,0,0,
0,0,0,0,0,0,0,0,0,0,0,0,0,0,0,0,0,0,0,0,0,0,0,0,0,0,0,0,0,0,
0,0,0,0,0,0,0,0,0,0,0,0,0,0,0,0,0,0,0,0,0,0,0,0,0,0,0,0,0,0,
0,0,0,0,0,0,0,0,0,0,0,0,0,0,143,144,145,146,0,0,161,162,159,160,0,0,0,0,0,0,
0,0,0,0,0,0,0,0,0,0,0,0,0,0,151,152,153,154,0,0,155,156,157,158,0,0,0,0,0,0,
0,0,0,0,0,0,0,0,0,0,0,0,0,0,147,148,149,150,0,0,139,140,141,142,0,0,0,0,0,0,
0,0,0,0,0,0,0,0,0,0,0,0,0,0,131,132,133,134,0,0,135,136,137,138,0,0,0,0,0,0,
0,0,0,0,0,0,0,0,0,0,0,0,0,0,0,0,0,0,0,0,0,0,0,0,0,0,0,0,0,0,
0,0,0,0,0,0,0,0,0,0,0,0,0,0,0,0,0,0,0,0,0,0,0,0,0,0,0,0,0,0,
0,0,0,0,0,0,0,0,0,0,0,0,0,0,0,0,0,0,0,0,0,0,0,0,0,0,0,0,0,0,
0,0,0,0,0,0,0,0,0,0,0,0,0,0,0,0,0,0,0,0,0,0,0,0,0,0,0,0,0,0,
0,0,0,0,0,0,0,0,0,0,0,0,0,0,0,0,0,0,0,0,0,0,0,0,0,0,0,0,0,0,
0,0,0,0,0,0,0,0,0,0,0,0,0,0,0,0,0,0,0,0,0,0,0,0,0,0,0,0,0,0,
0,0,0,0,0,0,0,0,0,0,0,0,0,0,0,0,0,0,0,0,0,0,0,0,0,0,0,0,0,0
</data>
 </layer>
</map>
