<?xml version="1.0" encoding="UTF-8"?>
<map version="1.10" tiledversion="1.12.2" orientation="orthogonal" renderorder="right-down" width="11" height="10" tilewidth="16" tileheight="16" infinite="0" nextlayerid="4" nextobjectid="1">
 <tileset firstgid="1" source="soil_island.tsj"/>
 <tileset firstgid="46" source="girl_idle_f.tsj"/>
 <tileset firstgid="54" source="grass_01.tsj"/>
 <tileset firstgid="129" source="girl_idle_l.tsj"/>
 <tileset firstgid="137" source="girl_idle_r.tsj"/>
 <tileset firstgid="145" source="girl_idle_b.tsj"/>
 <tileset firstgid="153" source="girl_walk_f.tsj"/>
 <tileset firstgid="161" source="girl_walk_b.tsj"/>
 <tileset firstgid="169" source="girl_walk_l.tsj"/>
 <tileset firstgid="177" source="girl_walk_r.tsj"/>
 <layer id="1" name="土" width="11" height="10">
  <data encoding="csv">
11,11,11,11,11,11,11,11,11,11,11,
11,11,11,11,11,11,11,11,11,11,11,
11,11,11,11,11,11,11,11,11,11,11,
11,11,11,11,11,11,11,11,11,11,11,
11,11,11,11,11,11,11,11,11,11,11,
11,11,11,11,11,11,11,11,11,11,11,
11,11,11,11,11,11,11,11,11,11,11,
11,11,11,11,11,11,11,11,11,11,11,
11,11,11,11,11,11,11,11,11,11,11,
11,11,11,11,11,11,11,11,11,11,11
</data>
 </layer>
 <layer id="2" name="草" width="11" height="10">
  <data encoding="csv">
70,70,70,71,0,0,0,69,70,70,70,
70,70,70,71,0,0,0,69,70,70,70,
70,70,70,71,0,0,0,69,70,70,70,
85,85,85,86,0,0,0,84,85,85,85,
0,0,0,0,0,0,0,0,0,0,0,
0,0,0,0,0,0,0,0,0,0,0,
0,0,0,0,0,0,0,0,0,0,0,
55,55,55,56,0,0,0,54,55,55,55,
70,70,70,71,0,0,0,69,70,70,70,
70,70,70,71,0,0,0,69,70,70,70
</data>
 </layer>
 <layer id="3" name="角色" width="11" height="10">
  <data encoding="csv">
0,0,0,0,0,0,0,0,0,0,0,
0,0,0,0,0,0,0,0,0,0,0,
0,0,0,0,0,0,0,0,0,0,0,
0,0,0,0,161,0,0,0,0,0,0,
0,0,0,0,0,0,0,0,0,0,0,
0,0,0,0,145,0,0,0,0,0,0,
0,169,0,129,0,137,0,177,0,0,0,
0,0,0,0,46,0,0,0,0,0,0,
0,0,0,0,0,0,0,0,0,0,0,
0,0,0,0,153,0,0,0,0,0,0
</data>
 </layer>
</map>
